!!!!SEGMENT: pl-cz--ii-240--009_zeidler-jozef--stabat-mater-quando-corpus-morietur.krn
!!!cenid: 18xx:311
!!!COM: Zeidler, Józef
!!!COM-rismID: pe30003401
!!!CDT: ~1744-1806
!!!CNT: Polish
!!!OPR: Stabat Mater
!!!OTL: Quando corpus morietur
!!!OMV: 009
!!!PDT: 1840
!!!AGN: Sacred
!!!SMS-siglum: PL-CZ
!!!SMS-shelfmark: II-240
!!!SMS-shelfwork: 001-009 M
!!!NIFC-rismSourceID: 300001451
!!!NIFC-rismChildID: 300001451
!!!NIFC-islandoraID: pl-cz:33216
!!!URL-pdf-islandora: https://repozytorium.nifc.pl/islandora/object/pl-cz%3A33216/datastream/PDF/view
!!!URL-scan: https://polish.musicsources.pl/pl/lokalizacje/galeria/rekopisy/6782/1 @EN{Scan on Polish Music Sources Website} @PL{Skany w portalu Dziedzictwo Muzyki Polskiej w otwartym dostępie}
!!!ONB-nifc: UWAGA: części: Stabat Mater, Quae merebat, Quis est homo, Quis non posset, Eja Mater, Fac me vere, Virgo virginum praeclara, Inflammatus, Quando corpus morietur, Amen
!!!AIN: 1 alto 1 bass 2 clars 2 cor 1 organ 1 soprn 1 tenor 1 viola 2 violn
!!!key:
**kern	**fba	**dynam	**kern	**dynam	**kern	**dynam	**kern	**dynam	**kern	**text	**dynam	**kern	**text	**dynam	**kern	**text	**dynam	**kern	**text	**dynam	**kern	**dynam	**kern	**dynam	**kern	**dynam	**kern	**dynam
*	*	*	*group4	*	*group4	*	*group4	*	*group3	*	*	*group3	*	*	*group3	*	*	*group3	*	*	*group2	*	*group2	*	*group1	*	*group1	*
*part12	*	*part12	*part11	*part11	*part10	*part10	*part9	*part9	*part8	*part8	*part8	*part7	*part7	*part7	*part6	*part6	*part6	*part5	*part5	*part5	*part4	*part4	*part3	*part3	*part2	*part2	*part1	*part1
*staff12	*	*	*staff11	*	*staff10	*	*staff9	*	*staff8	*staff8	*	*staff7	*staff7	*	*staff6	*staff6	*	*staff5	*staff5	*	*staff4	*	*staff3	*	*staff2	*	*staff1	*
*IGcont	*	*	*IGacmp	*	*IGacmp	*	*IGacmp	*	*IGcoro	*	*	*IGcoro	*	*	*IGcoro	*	*	*IGcoro	*	*	*IGacmp	*	*IGacmp	*	*IGacmp	*	*IGacmp	*
*ICklav	*	*	*ICstr	*	*ICstr	*	*ICstr	*	*ICvox	*	*	*ICvox	*	*	*ICvox	*	*	*ICvox	*	*	*ICbras	*	*ICbras	*	*ICww	*	*ICww	*
*Iorgan	*	*	*Iviola	*	*Ivioln	*	*Ivioln	*	*Ibass	*	*	*Itenor	*	*	*Ialto	*	*	*Isoprn	*	*	*Icor	*	*Icor	*	*Iclars	*	*Iclars	*
*I"Organ.	*	*	*I"Viola	*	*I"Violin 2do	*	*I"Violio 1mo	*	*I"Bas.	*	*	*I"Tenor.	*	*	*I"Alt.	*	*	*I"Cant.	*	*	*I"Corno 2do in F.	*	*I"Corno 1mo in F.	*	*I"Clarinetto 2do. in B.	*	*I"Clarinetto 1mo in B.	*
*I'org	*	*	*I'vla	*	*I'vl 1	*	*I'vl 2	*	*I'B	*	*	*I'T	*	*	*I'A	*	*	*I'S	*	*	*I'cor 2	*	*I'cor 1	*	*I'cl 2	*	*I'cl 1	*
*clefF4	*	*	*clefC3	*	*clefG2	*	*clefG2	*	*clefF4	*	*	*clefC4	*	*	*clefC3	*	*	*clefC1	*	*	*clefG2	*	*clefG2	*	*clefG2	*	*clefG2	*
*	*	*	*	*	*	*	*	*	*	*	*	*	*	*	*	*	*	*	*	*	*ITrd4c7	*	*ITrd4c7	*	*ITrd1c2	*	*ITrd1c2	*
*k[b-]	*	*	*k[b-]	*	*k[b-]	*	*k[b-]	*	*k[b-]	*	*	*k[b-]	*	*	*k[b-]	*	*	*k[b-]	*	*	*k[b-]	*	*k[b-]	*	*k[b-]	*	*k[b-]	*
*d:	*	*	*d:	*	*d:	*	*d:	*	*d:	*	*	*d:	*	*	*d:	*	*	*d:	*	*	*d:	*	*d:	*	*d:	*	*d:	*
*M4/4	*	*	*M4/4	*	*M4/4	*	*M4/4	*	*M4/4	*	*	*M4/4	*	*	*M4/4	*	*	*M4/4	*	*	*M4/4	*	*M4/4	*	*M4/4	*	*M4/4	*
*met(c)	*	*	*met(c)	*	*met(c)	*	*met(c)	*	*met(c)	*	*	*met(c)	*	*	*met(c)	*	*	*met(c)	*	*	*met(c)	*	*met(c)	*	*met(c)	*	*met(c)	*
*all\right	*	*	*all\right	*	*all\right	*	*all\right	*	*all\right	*	*	*all\right	*	*	*all\right	*	*	*all\right	*	*	*all\right	*	*all\right	*	*all\right	*	*all\right	*
=1	=1	=1	=1	=1	=1	=1	=1	=1	=1	=1	=1	=1	=1	=1	=1	=1	=1	=1	=1	=1	=1	=1	=1	=1	=1	=1	=1	=1
*xywh-#40:8872,5768,3128,491	*	*	*xywh-#30:2178,2871,4959,1038	*	*xywh-#25:7219,415,4849,1080	*	*xywh-#19:7333,2901,4843,713	*	*xywh-#13:2309,5507,4744,653	*	*	*xywh-#10:7215,5840,4750,735	*	*	*xywh-#8:7259,2036,4928,706	*	*	*xywh-#5:7265,2641,4833,1138	*	*	*xywh-#36:2232,1309,4862,661	*	*xywh-#35:2306,1929,4777,564	*	*xywh-#34:2289,3077,4839,616	*	*xywh-#32:2224,4709,4883,585	*
*8\right	*	*	*8\right	*	*8\right	*	*16\right	*	*	*	*	*	*	*	*	*	*	*	*	*	*	*	*	*	*	*	*	*
!	!	!	!	!	!	!	!	!	!	!	!	!	!	!	!	!	!	!	!	!LO:DY:b:t=for:rj:color=lightgray	!	!	!LO:TX:t=4:mod=	!	!	!	!LO:TX:a:t=Adagio:rj:mod=	!
!LO:TX:a:t=Adagio:rj:mod=	!	!LO:HP:b	!LO:TX:a:t=Adagio:mod=:mod=	!LO:HP:b	!LO:TX:a:t=Adagio:mod=	!LO:HP:b	!LO:TX:a:t=Adagio:rj:mod=	!LO:HP:a	!LO:TX:a:t=Adagio:mod=	!	!	!LO:TX:a:t=Adagio:mod=	!	!	!LO:TX:a:t=Adagio:mod=	!	!	!LO:TX:a:t=Adagio:mod=	!	!LO:MO:mod=.	!LO:TX:a:t=Adagio:mod=	!	!LO:TX:a:t=Adagio:rj:mod=	!	!LO:TX:a:t=Adagio:rj:mod=	!	!	!
8D\	.	<	8f\	<	8a/	<	16r	<	00r	.	.	00r	.	.	00r	.	.	00r	.	f	00r	.	00r	.	00r	.	00r	.
.	.	.	.	.	.	.	(16aa\LL	.	.	.	.	.	.	.	.	.	.	.	.	.	.	.	.	.	.	.	.	.
8r	.	.	8r	.	8r	.	16ff\	.	.	.	.	.	.	.	.	.	.	.	.	.	.	.	.	.	.	.	.	.
.	.	.	.	.	.	.	16dd\JJ)	.	.	.	.	.	.	.	.	.	.	.	.	.	.	.	.	.	.	.	.	.
8D\	.	.	8f\	.	8a/	.	16r	.	.	.	.	.	.	.	.	.	.	.	.	.	.	.	.	.	.	.	.	.
.	.	.	.	.	.	.	(16aa\LL	.	.	.	.	.	.	.	.	.	.	.	.	.	.	.	.	.	.	.	.	.
8r	.	.	8r	.	8r	.	16ff\	.	.	.	.	.	.	.	.	.	.	.	.	.	.	.	.	.	.	.	.	.
.	.	.	.	.	.	.	16dd\JJ)	.	.	.	.	.	.	.	.	.	.	.	.	.	.	.	.	.	.	.	.	.
8E\	6|	.	8g\	.	8a/	.	16r	.	.	.	.	.	.	.	.	.	.	.	.	.	.	.	.	.	.	.	.	.
.	.	.	.	.	.	.	(16gg\LL	.	.	.	.	.	.	.	.	.	.	.	.	.	.	.	.	.	.	.	.	.
8r	.	.	8r	.	8r	.	16ee\	.	.	.	.	.	.	.	.	.	.	.	.	.	.	.	.	.	.	.	.	.
.	.	.	.	.	.	.	16cc#X\JJ)	.	.	.	.	.	.	.	.	.	.	.	.	.	.	.	.	.	.	.	.	.
*	*	*	*	*	*	*	*rep	*	*	*	*	*	*	*	*	*	*	*	*	*	*	*	*	*	*	*	*	*
8E\	.	.	8g\	.	8a/	.	16r	.	.	.	.	.	.	.	.	.	.	.	.	.	.	.	.	.	.	.	.	.
.	.	.	.	.	.	.	(16gg\LL	.	.	.	.	.	.	.	.	.	.	.	.	.	.	.	.	.	.	.	.	.
8r	.	.	8r	.	8r	.	16ee\	.	.	.	.	.	.	.	.	.	.	.	.	.	.	.	.	.	.	.	.	.
.	.	.	.	.	.	.	16cc#X\JJ)	.	.	.	.	.	.	.	.	.	.	.	.	.	.	.	.	.	.	.	.	.
*	*	*	*	*	*	*	*Xrep	*	*	*	*	*	*	*	*	*	*	*	*	*	*	*	*	*	*	*	*	*
=2	=2	=2	=2	=2	=2	=2	=2	=2	=2	=2	=2	=2	=2	=2	=2	=2	=2	=2	=2	=2	=2	=2	=2	=2	=2	=2	=2	=2
8C#X/	7	.	8e\	.	8b-\	.	16r	.	.	.	.	.	.	.	.	.	.	.	.	.	.	.	.	.	.	.	.	.
.	.	.	.	.	.	.	16bb-\LL	.	.	.	.	.	.	.	.	.	.	.	.	.	.	.	.	.	.	.	.	.
8r	.	.	8r	.	8r	.	16gg\	.	.	.	.	.	.	.	.	.	.	.	.	.	.	.	.	.	.	.	.	.
.	.	.	.	.	.	.	16ee\JJ	.	.	.	.	.	.	.	.	.	.	.	.	.	.	.	.	.	.	.	.	.
*	*	*	*	*	*	*	*rep	*	*	*	*	*	*	*	*	*	*	*	*	*	*	*	*	*	*	*	*	*
8C#/	.	.	8e\	.	8b-\	.	16r	.	.	.	.	.	.	.	.	.	.	.	.	.	.	.	.	.	.	.	.	.
.	.	.	.	.	.	.	16bb-\LL	.	.	.	.	.	.	.	.	.	.	.	.	.	.	.	.	.	.	.	.	.
8r	.	.	8r	.	8r	.	16gg\	.	.	.	.	.	.	.	.	.	.	.	.	.	.	.	.	.	.	.	.	.
.	.	.	.	.	.	.	16ee\JJ	.	.	.	.	.	.	.	.	.	.	.	.	.	.	.	.	.	.	.	.	.
*	*	*	*	*	*	*	*Xrep	*	*	*	*	*	*	*	*	*	*	*	*	*	*	*	*	*	*	*	*	*
*	*	*	*	*	*	*	*xywh-#19:7304,3418,4865,648	*	*	*	*	*	*	*	*	*	*	*	*	*	*	*	*	*	*	*	*	*
!	!	!	!	!	!	!	!LO:LB:g=original	!	!	!	!	!	!	!	!	!	!	!	!	!	!	!	!	!	!	!	!	!
8D/	.	.	8f\	.	8a\	.	16r	.	.	.	.	.	.	.	.	.	.	.	.	.	.	.	.	.	.	.	.	.
.	.	.	.	.	.	.	16aa\LL	.	.	.	.	.	.	.	.	.	.	.	.	.	.	.	.	.	.	.	.	.
8r	.	.	8r	.	8r	.	16ff\	.	.	.	.	.	.	.	.	.	.	.	.	.	.	.	.	.	.	.	.	.
.	.	.	.	.	.	.	16dd\JJ	.	.	.	.	.	.	.	.	.	.	.	.	.	.	.	.	.	.	.	.	.
*	*	*	*	*	*	*	*rep	*	*	*	*	*	*	*	*	*	*	*	*	*	*	*	*	*	*	*	*	*
8D/	.	.	8f\	.	8a\	.	16r	.	.	.	.	.	.	.	.	.	.	.	.	.	.	.	.	.	.	.	.	.
.	.	.	.	.	.	.	16aa\LL	.	.	.	.	.	.	.	.	.	.	.	.	.	.	.	.	.	.	.	.	.
8r	.	.	8r	.	8r	.	16ff\	.	.	.	.	.	.	.	.	.	.	.	.	.	.	.	.	.	.	.	.	.
.	.	.	.	.	.	.	16dd\JJ	.	.	.	.	.	.	.	.	.	.	.	.	.	.	.	.	.	.	.	.	.
*	*	*	*	*	*	*	*Xrep	*	*	*	*	*	*	*	*	*	*	*	*	*	*	*	*	*	*	*	*	*
!LO:LB:g=original	!	!	!	!	!	!	!	!	!	!	!	!	!	!	!	!	!	!	!	!	!	!	!	!	!	!	!	!
=3	=3	=3	=3	=3	=3	=3	=3	=3	=3	=3	=3	=3	=3	=3	=3	=3	=3	=3	=3	=3	=3	=3	=3	=3	=3	=3	=3	=3
*xywh-#40:7312,6158,4797,694	*	*	*	*	*	*	*	*	*	*	*	*	*	*	*	*	*	*	*	*	*	*	*	*	*	*	*	*
8BB-/	6|	.	8d\	.	8g#X/	.	16r	.	.	.	.	.	.	.	.	.	.	.	.	.	.	.	.	.	.	.	.	.
.	.	.	.	.	.	.	16ddd\LL	.	.	.	.	.	.	.	.	.	.	.	.	.	.	.	.	.	.	.	.	.
8r	.	.	8r	.	8r	.	16gg#X\	.	.	.	.	.	.	.	.	.	.	.	.	.	.	.	.	.	.	.	.	.
.	.	.	.	.	.	.	16dd\JJ	.	.	.	.	.	.	.	.	.	.	.	.	.	.	.	.	.	.	.	.	.
*	*	*	*	*	*	*	*rep	*	*	*	*	*	*	*	*	*	*	*	*	*	*	*	*	*	*	*	*	*
8BB-/	.	.	8d\	.	8g#/	.	16r	.	.	.	.	.	.	.	.	.	.	.	.	.	.	.	.	.	.	.	.	.
.	.	.	.	.	.	.	16ddd\LL	.	.	.	.	.	.	.	.	.	.	.	.	.	.	.	.	.	.	.	.	.
8r	.	.	8r	.	8r	.	16gg#X\	.	.	.	.	.	.	.	.	.	.	.	.	.	.	.	.	.	.	.	.	.
.	.	.	.	.	.	.	16dd\JJ	.	.	.	.	.	.	.	.	.	.	.	.	.	.	.	.	.	.	.	.	.
*	*	*	*	*	*	*	*Xrep	*	*	*	*	*	*	*	*	*	*	*	*	*	*	*	*	*	*	*	*	*
8AA/	#	.	8c#X\	.	8e/	.	16r	.	.	.	.	.	.	.	.	.	.	.	.	.	.	.	.	.	.	.	.	.
.	.	.	.	.	.	.	16ccc#X\LL	.	.	.	.	.	.	.	.	.	.	.	.	.	.	.	.	.	.	.	.	.
8r	.	.	8r	.	8r	.	16aa\	.	.	.	.	.	.	.	.	.	.	.	.	.	.	.	.	.	.	.	.	.
.	.	.	.	.	.	.	16ee\JJ	.	.	.	.	.	.	.	.	.	.	.	.	.	.	.	.	.	.	.	.	.
*	*	*	*	*	*	*	*rep	*	*	*	*	*	*	*	*	*	*	*	*	*	*	*	*	*	*	*	*	*
8AA/	.	.	8c#\	.	8e/	.	16r	.	.	.	.	.	.	.	.	.	.	.	.	.	.	.	.	.	.	.	.	.
.	.	.	.	.	.	.	16ccc#X\LL	.	.	.	.	.	.	.	.	.	.	.	.	.	.	.	.	.	.	.	.	.
8r	.	.	8r	.	8r	.	16aa\	.	.	.	.	.	.	.	.	.	.	.	.	.	.	.	.	.	.	.	.	.
.	.	.	.	.	.	.	16ee\JJ	.	.	.	.	.	.	.	.	.	.	.	.	.	.	.	.	.	.	.	.	.
*	*	*	*	*	*	*	*Xrep	*	*	*	*	*	*	*	*	*	*	*	*	*	*	*	*	*	*	*	*	*
!	!	!	!	!	!LO:LB:g=original	!	!	!	!	!	!	!	!	!	!	!	!	!	!	!	!	!	!	!	!	!	!	!
=4	=4	=4	=4	=4	=4	=4	=4	=4	=4	=4	=4	=4	=4	=4	=4	=4	=4	=4	=4	=4	=4	=4	=4	=4	=4	=4	=4	=4
*	*	*	*	*	*xywh-#25:7164,1314,4843,613	*	*	*	*	*	*	*	*	*	*	*	*	*	*	*	*	*	*	*	*	*	*	*
8BB-/	6|	.	8d\	.	8g#X/	.	16r	.	.	.	.	.	.	.	.	.	.	.	.	.	.	.	.	.	.	.	.	.
.	.	.	.	.	.	.	16ddd\LL	.	.	.	.	.	.	.	.	.	.	.	.	.	.	.	.	.	.	.	.	.
8r	.	.	8r	.	8r	.	16gg#X\	.	.	.	.	.	.	.	.	.	.	.	.	.	.	.	.	.	.	.	.	.
.	.	.	.	.	.	.	16dd\JJ	.	.	.	.	.	.	.	.	.	.	.	.	.	.	.	.	.	.	.	.	.
*	*	*	*	*	*	*	*rep	*	*	*	*	*	*	*	*	*	*	*	*	*	*	*	*	*	*	*	*	*
8BB-/	.	.	8d\	.	8g#/	.	16r	.	.	.	.	.	.	.	.	.	.	.	.	.	.	.	.	.	.	.	.	.
.	.	.	.	.	.	.	16ddd\LL	.	.	.	.	.	.	.	.	.	.	.	.	.	.	.	.	.	.	.	.	.
8r	.	.	8r	.	8r	.	16gg#X\	.	.	.	.	.	.	.	.	.	.	.	.	.	.	.	.	.	.	.	.	.
.	.	.	.	.	.	.	16dd\JJ	.	.	.	.	.	.	.	.	.	.	.	.	.	.	.	.	.	.	.	.	.
*	*	*	*	*	*	*	*Xrep	*	*	*	*	*	*	*	*	*	*	*	*	*	*	*	*	*	*	*	*	*
.	.	.	.	.	.	.	16qqdd/	.	.	.	.	.	.	.	.	.	.	.	.	.	.	.	.	.	.	.	.	.
4AA/	#	.	8.c#X\L	.	8.e/L	.	4cc#X\	.	.	.	.	.	.	.	.	.	.	.	.	.	.	.	.	.	.	.	.	.
*	*	*	*	*	*16\right	*	*	*	*	*	*	*	*	*	*	*	*	*	*	*	*	*	*	*	*	*	*	*
!	!	!	!	!LO:HP:a	!	!LO:DY:a	!	!	!	!	!	!	!	!	!	!	!	!	!	!	!	!	!	!	!	!	!	!
.	.	.	16g'\Jk	>	16b-'/Jk	>	.	.	.	.	.	.	.	.	.	.	.	.	.	.	.	.	.	.	.	.	.	.
4r	.	.	16f'\LL	.	16a'/LL	.	4r	.	.	.	.	.	.	.	.	.	.	.	.	.	.	.	.	.	.	.	.	.
!	!	!	!	!	!LO:SIC:v:s=16gn'/	!	!	!	!	!	!	!	!	!	!	!	!	!	!	!	!	!	!	!	!	!	!	!
.	.	.	16e'\	.	16g#'/	.	.	.	.	.	.	.	.	.	.	.	.	.	.	.	.	.	.	.	.	.	.	.
.	.	.	16d'\	.	16f'/	.	.	.	.	.	.	.	.	.	.	.	.	.	.	.	.	.	.	.	.	.	.	.
!	!	!	!	!LO:MO:mod=]]	!	!	!	!	!	!	!	!	!	!	!	!	!	!	!	!	!	!	!	!	!	!	!	!
.	.	.	16c#'\JJ	]	16e'/JJ	]]	.	.	.	.	.	.	.	.	.	.	.	.	.	.	.	.	.	.	.	.	.	.
=5	=5	=5	=5	=5	=5	=5	=5	=5	=5	=5	=5	=5	=5	=5	=5	=5	=5	=5	=5	=5	=5	=5	=5	=5	=5	=5	=5	=5
*	*	*	*	*	*	*	*	*	*4\right	*	*	*4\right	*	*	*4\right	*	*	*4\right	*	*	*2\right	*	*2\right	*	*2\right	*	*2\right	*
!	!	!	!	!	!	!	!	!	!	!	!	!	!	!	!	!	!	!	!	!	!	!	!	!LO:MO:null:mod=!LO&colon;DY&colon;ed=brack	!	!	!	!
!	!	!LO:MO:mod=!null	!	!LO:MO:mod=!null	!	!LO:MO:mod=!null	!	!	!	!	!LO:MO:mod=!null	!	!	!LO:MO:mod=!null	!	!	!	!	!	!	!	!LO:MO:mod=!null	!	!	!	!LO:MO:mod=!null	!	!LO:MO:mod=!null
!LO:TX:a:i:t=tutti:mod=	!	!LO:DY:t=for	!	!LO:DY:t=for	!	!LO:DY:t=for	!	!LO:MO:null:mod=f	!	!	!LO:DY:t=for:rj	!	!	!LO:DY:t=for	!	!	!LO:DY:b:t=fo:rj	!	!	!LO:DY:b:rj	!	!LO:DY:t=for	!	!LO:MO:null:mod=f	!	!LO:DY:t=for	!	!LO:DY:t=for:rj
8D\	.	f	8d\	f	8d/	f	16r	.	4D\	Quan-	f	4A\	Quan-	f	4f\	Quan-	f	4dd\	Quan-	f	2A/	f	2A/	.	2dd\	f	2ff\	f
.	.	.	.	.	.	.	16aa\LL	.	.	.	.	.	.	.	.	.	.	.	.	.	.	.	.	.	.	.	.	.
8r	.	.	8r	.	8r	.	16ff\	.	.	.	.	.	.	.	.	.	.	.	.	.	.	.	.	.	.	.	.	.
.	.	.	.	.	.	.	16dd\JJ	.	.	.	.	.	.	.	.	.	.	.	.	.	.	.	.	.	.	.	.	.
*	*	*	*	*	*	*	*rep	*	*	*	*	*	*	*	*	*	*	*	*	*	*	*	*	*	*	*	*	*
8D\	.	.	8f\	.	8a/	.	16r	.	4D\	-do	.	4A\	-do	.	4f\	-do	.	4dd\	-do	.	.	.	.	.	.	.	.	.
.	.	.	.	.	.	.	16aa\LL	.	.	.	.	.	.	.	.	.	.	.	.	.	.	.	.	.	.	.	.	.
8r	.	.	8r	.	8r	.	16ff\	.	.	.	.	.	.	.	.	.	.	.	.	.	.	.	.	.	.	.	.	.
.	.	.	.	.	.	.	16dd\JJ	.	.	.	.	.	.	.	.	.	.	.	.	.	.	.	.	.	.	.	.	.
*	*	*	*xywh-#30:2184,3632,4940,597	*	*	*	*Xrep	*	*	*	*	*	*	*	*	*	*	*	*	*	*	*	*	*	*	*	*	*
*	*	*	*	*	*	*	*	*	*	*	*	*	*	*	*	*	*	*	*	*	*4\right	*	*4\right	*	*	*	*	*
!	!	!	!LO:LB:g=original	!	!	!	!	!	!	!	!	!	!	!	!	!	!	!	!	!	!	!	!	!	!	!	!	!
8E\	6|	.	8g\	.	8a/	.	16r	.	4E\	cor-	.	4A\	cor-	.	4g\	cor-	.	4cc#X\	cor-	.	4A/	.	4A/	.	2cc#X\	.	2gg\	.
.	.	.	.	.	.	.	16gg\LL	.	.	.	.	.	.	.	.	.	.	.	.	.	.	.	.	.	.	.	.	.
8r	.	.	8r	.	8r	.	16ee\	.	.	.	.	.	.	.	.	.	.	.	.	.	.	.	.	.	.	.	.	.
.	.	.	.	.	.	.	16cc#X\JJ	.	.	.	.	.	.	.	.	.	.	.	.	.	.	.	.	.	.	.	.	.
*	*	*	*	*	*	*	*rep	*	*	*	*	*	*	*	*	*	*	*	*	*	*	*	*	*	*	*	*	*
8E\	.	.	8g\	.	8a/	.	16r	.	4E\	-pus	.	4A\	-pus	.	4g\	-pus	.	4cc#\	-pus	.	4r	.	4r	.	.	.	.	.
.	.	.	.	.	.	.	16gg\LL	.	.	.	.	.	.	.	.	.	.	.	.	.	.	.	.	.	.	.	.	.
8r	.	.	8r	.	8r	.	16ee\	.	.	.	.	.	.	.	.	.	.	.	.	.	.	.	.	.	.	.	.	.
.	.	.	.	.	.	.	16cc#X\JJ	.	.	.	.	.	.	.	.	.	.	.	.	.	.	.	.	.	.	.	.	.
*	*	*	*	*	*	*	*Xrep	*	*	*	*	*	*	*	*	*	*	*	*	*	*	*	*	*	*	*	*	*
!	!	!	!	!	!	!	!LO:LB:g=original	!	!	!	!	!	!	!	!	!	!	!	!	!	!	!	!	!	!	!	!	!
=6	=6	=6	=6	=6	=6	=6	=6	=6	=6	=6	=6	=6	=6	=6	=6	=6	=6	=6	=6	=6	=6	=6	=6	=6	=6	=6	=6	=6
*	*	*	*	*	*	*	*xywh-#19:7304,3979,4938,597	*	*	*	*	*	*above	*	*	*	*	*	*	*	*	*	*	*	*	*	*	*
!	!	!	!	!	!	!	!	!LO:DY:t=for	!	!	!	!	!	!	!	!	!	!	!	!	!	!	!	!	!	!	!	!
!	!	!	!	!	!	!	!	!LO:MO:mod=.	!	!	!	!	!	!	!	!	!	!	!	!	!LO:TX:a:t=2:mod=	!	!LO:TX:a:t=2:mod=	!	!	!	!	!
8C#X/	.	.	8e\	.	8b-\	.	16r	f	4C#X/	mo-	.	4B-\	mo-	.	4g\	mo-	.	4ee\	mo-	.	0r	.	0r	.	2ee\	.	2gg\	.
.	.	.	.	.	.	.	16bb-\LL	.	.	.	.	.	.	.	.	.	.	.	.	.	.	.	.	.	.	.	.	.
8r	.	.	8r	.	8r	.	16gg\	.	.	.	.	.	.	.	.	.	.	.	.	.	.	.	.	.	.	.	.	.
.	.	.	.	.	.	.	16ee\JJ	.	.	.	.	.	.	.	.	.	.	.	.	.	.	.	.	.	.	.	.	.
*	*	*	*	*	*	*	*rep	*	*	*	*	*	*	*	*	*	*	*	*	*	*	*	*	*	*	*	*	*
8C#/	.	.	8e\	.	8b-\	.	16r	.	4C#/	-ri-	.	4B-\	-ri-	.	4g\	-ri-	.	4ee\	-ri-	.	.	.	.	.	.	.	.	.
.	.	.	.	.	.	.	16bb-\LL	.	.	.	.	.	.	.	.	.	.	.	.	.	.	.	.	.	.	.	.	.
8r	.	.	8r	.	8r	.	16gg\	.	.	.	.	.	.	.	.	.	.	.	.	.	.	.	.	.	.	.	.	.
.	.	.	.	.	.	.	16ee\JJ	.	.	.	.	.	.	.	.	.	.	.	.	.	.	.	.	.	.	.	.	.
*	*	*	*	*	*	*	*Xrep	*	*	*	*	*	*below	*	*	*	*	*	*	*	*	*	*	*	*	*	*	*
8D/	.	.	8f\	.	8a\	.	16r	.	4D/	-e-	.	4A\	-e-	.	4f\	-e-	.	4dd\	-e-	.	.	.	.	.	2dd\	.	2ff\	.
.	.	.	.	.	.	.	16aa\LL	.	.	.	.	.	.	.	.	.	.	.	.	.	.	.	.	.	.	.	.	.
8r	.	.	8r	.	8r	.	16ff\	.	.	.	.	.	.	.	.	.	.	.	.	.	.	.	.	.	.	.	.	.
.	.	.	.	.	.	.	16dd\JJ	.	.	.	.	.	.	.	.	.	.	.	.	.	.	.	.	.	.	.	.	.
*	*	*	*	*	*	*	*rep	*	*	*	*	*	*	*	*	*	*	*	*	*	*	*	*	*	*	*	*	*
!	!	!	!	!	!	!	!	!	!	!LO:MO:mod=-tur,	!	!	!LO:MO:mod=-tur,	!	!	!LO:MO:mod=-tur,	!	!	!LO:MO:mod=-tur,	!	!	!	!	!	!	!	!	!
8D/	.	.	8f\	.	8a\	.	16r	.	4D/	-tur	.	4A\	-tur	.	4f\	-tur	.	4dd\	-tur	.	.	.	.	.	.	.	.	.
.	.	.	.	.	.	.	16aa\LL	.	.	.	.	.	.	.	.	.	.	.	.	.	.	.	.	.	.	.	.	.
8r	.	.	8r	.	8r	.	16ff\	.	.	.	.	.	.	.	.	.	.	.	.	.	.	.	.	.	.	.	.	.
.	.	.	.	.	.	.	16dd\JJ	.	.	.	.	.	.	.	.	.	.	.	.	.	.	.	.	.	.	.	.	.
*	*	*	*	*	*	*	*Xrep	*	*	*	*	*	*	*	*	*	*	*	*	*	*	*	*	*	*	*	*	*
=7	=7	=7	=7	=7	=7	=7	=7	=7	=7	=7	=7	=7	=7	=7	=7	=7	=7	=7	=7	=7	=7	=7	=7	=7	=7	=7	=7	=7
!	!	!	!	!	!	!	!	!	!	!	!	!	!	!	!	!	!	!	!	!	!	!	!	!	!	!	!LO:TX:t=h:color=lightgray:note=ołówkiem:mod=	!
!	!LO:MO:mod=4# 2	!	!	!	!	!	!	!	!	!LO:MO:mod=fac,	!	!	!LO:MO:mod=fac,	!	!	!LO:MO:mod=fac,	!	!	!LO:MO:mod=fac,	!	!	!	!	!	!	!	!LO:SIC:v:s=2aa\	!
8Cn/	4#r 2	.	8f#X\	.	8a/	.	16r	.	4Cn\	fac	.	4d\	fac	.	4a\	fac	.	4ff#X\	fac	.	.	.	.	.	2ff#X\	.	2gg\	.
.	.	.	.	.	.	.	16aa\LL	.	.	.	.	.	.	.	.	.	.	.	.	.	.	.	.	.	.	.	.	.
8r	.	.	8r	.	8r	.	16ff#X\	.	.	.	.	.	.	.	.	.	.	.	.	.	.	.	.	.	.	.	.	.
.	.	.	.	.	.	.	16dd\JJ	.	.	.	.	.	.	.	.	.	.	.	.	.	.	.	.	.	.	.	.	.
*	*	*	*	*	*	*	*rep	*	*	*	*	*	*	*	*	*	*	*	*	*	*	*	*	*	*	*	*	*
8C/	.	.	8f#\	.	8a/	.	16r	.	4c\	ut	.	4d\	ut	.	4a\	ut	.	4ff#\	ut	.	.	.	.	.	.	.	.	.
.	.	.	.	.	.	.	16aa\LL	.	.	.	.	.	.	.	.	.	.	.	.	.	.	.	.	.	.	.	.	.
8r	.	.	8r	.	8r	.	16ff#X\	.	.	.	.	.	.	.	.	.	.	.	.	.	.	.	.	.	.	.	.	.
.	.	.	.	.	.	.	16dd\JJ	.	.	.	.	.	.	.	.	.	.	.	.	.	.	.	.	.	.	.	.	.
*	*	*	*	*	*	*	*Xrep	*	*	*	*	*	*	*	*	*	*	*	*	*	*	*	*	*	*	*	*	*
8BB-/	6	.	8d\	.	8g/	.	16r	.	4B-\	a-	.	4d\	a-	.	4g\	a-	.	4gg\	a-	.	.	.	.	.	2gg\	.	2bb-\	.
.	.	.	.	.	.	.	16ddd\LL	.	.	.	.	.	.	.	.	.	.	.	.	.	.	.	.	.	.	.	.	.
8r	.	.	8r	.	8r	.	16bb-\	.	.	.	.	.	.	.	.	.	.	.	.	.	.	.	.	.	.	.	.	.
.	.	.	.	.	.	.	16gg\JJ	.	.	.	.	.	.	.	.	.	.	.	.	.	.	.	.	.	.	.	.	.
*	*	*	*	*	*	*	*rep	*	*	*	*	*	*	*	*	*	*	*	*	*	*	*	*	*	*	*	*	*
8BB-/	.	.	8d\	.	8g/	.	16r	.	4B-\	-ni-	.	4d\	-ni-	.	4g\	-ni-	.	4gg\	-ni-	.	.	.	.	.	.	.	.	.
.	.	.	.	.	.	.	16ddd\LL	.	.	.	.	.	.	.	.	.	.	.	.	.	.	.	.	.	.	.	.	.
8r	.	.	8r	.	8r	.	16bb-\	.	.	.	.	.	.	.	.	.	.	.	.	.	.	.	.	.	.	.	.	.
.	.	.	.	.	.	.	16gg\JJ	.	.	.	.	.	.	.	.	.	.	.	.	.	.	.	.	.	.	.	.	.
*	*	*	*	*	*	*	*Xrep	*	*	*	*	*	*	*	*	*	*	*	*	*	*	*	*	*	*	*	*	*
!LO:LB:g=original	!	!	!	!	!	!	!	!	!	!	!	!	!	!	!	!	!	!	!	!	!	!	!	!	!	!	!	!
=8	=8	=8	=8	=8	=8	=8	=8	=8	=8	=8	=8	=8	=8	=8	=8	=8	=8	=8	=8	=8	=8	=8	=8	=8	=8	=8	=8	=8
*xywh-#40:7312,6626,4743,499	*	*	*	*	*	*	*	*	*	*	*	*	*	*	*	*	*	*	*	*	*	*	*	*	*	*	*	*
8BB-/	4 2	.	8e\	.	8g/	.	16r	.	4B-\	-mae	.	4c\	-mae	.	4g\	-mae	.	4ee\	-mae	.	2c/	.	2g\	.	2ee\	.	2gg\	.
.	.	.	.	.	.	.	16gg\LL	.	.	.	.	.	.	.	.	.	.	.	.	.	.	.	.	.	.	.	.	.
8r	.	.	8r	.	8r	.	16ee\	.	.	.	.	.	.	.	.	.	.	.	.	.	.	.	.	.	.	.	.	.
.	.	.	.	.	.	.	16cc\JJ	.	.	.	.	.	.	.	.	.	.	.	.	.	.	.	.	.	.	.	.	.
*	*	*	*	*	*	*	*rep	*	*	*	*	*	*	*	*	*	*	*	*	*	*	*	*	*	*	*	*	*
8BB-/	.	.	8e\	.	8g/	.	16r	.	4B-\	do-	.	4c\	do-	.	4g\	do-	.	4ee\	do-	.	.	.	.	.	.	.	.	.
.	.	.	.	.	.	.	16gg\LL	.	.	.	.	.	.	.	.	.	.	.	.	.	.	.	.	.	.	.	.	.
8r	.	.	8r	.	8r	.	16ee\	.	.	.	.	.	.	.	.	.	.	.	.	.	.	.	.	.	.	.	.	.
.	.	.	.	.	.	.	16cc\JJ	.	.	.	.	.	.	.	.	.	.	.	.	.	.	.	.	.	.	.	.	.
*	*	*	*	*	*	*	*Xrep	*	*	*	*	*	*	*	*	*	*	*	*	*	*	*	*	*	*	*	*	*
8AA/	6	.	8c\	.	8f/	.	16r	.	4A\	-ne-	.	4c\	-ne-	.	4f\	-ne-	.	4ffn\	-ne-	.	2A/	.	2f\	.	2ffn\	.	2aa\	.
.	.	.	.	.	.	.	16ccc\LL	.	.	.	.	.	.	.	.	.	.	.	.	.	.	.	.	.	.	.	.	.
8r	.	.	8r	.	8r	.	16aa\	.	.	.	.	.	.	.	.	.	.	.	.	.	.	.	.	.	.	.	.	.
.	.	.	.	.	.	.	16ff\JJ	.	.	.	.	.	.	.	.	.	.	.	.	.	.	.	.	.	.	.	.	.
*	*	*	*	*	*	*	*rep	*	*	*	*	*	*	*	*	*	*	*	*	*	*	*	*	*	*	*	*	*
8AA/	.	.	8c\	.	8f/	.	16r	.	4A\	-tur	.	4c\	-tur	.	4f\	-tur	.	4ff\	-tur	.	.	.	.	.	.	.	.	.
.	.	.	.	.	.	.	16ccc\LL	.	.	.	.	.	.	.	.	.	.	.	.	.	.	.	.	.	.	.	.	.
8r	.	.	8r	.	8r	.	16aa\	.	.	.	.	.	.	.	.	.	.	.	.	.	.	.	.	.	.	.	.	.
.	.	.	.	.	.	.	16ff\JJ	.	.	.	.	.	.	.	.	.	.	.	.	.	.	.	.	.	.	.	.	.
*	*	*	*	*	*	*	*Xrep	*	*	*	*	*	*	*	*	*	*	*	*	*	*	*	*	*	*	*	*	*
!	!	!	!	!	!LO:LB:g=original	!	!	!	!LO:LB:g=original	!	!	!	!	!	!	!	!	!	!	!	!	!	!	!	!	!	!	!
=9	=9	=9	=9	=9	=9	=9	=9	=9	=9	=9	=9	=9	=9	=9	=9	=9	=9	=9	=9	=9	=9	=9	=9	=9	=9	=9	=9	=9
*	*	*	*	*	*xywh-#25:7219,1848,4679,509	*	*	*	*xywh-#13:2242,6070,4762,611	*	*	*	*	*	*	*	*	*	*	*	*	*	*	*	*	*	*	*
!	!	!	!	!	!	!	!	!	!	!LO:MO:mod=pa-	!	!	!	!	!	!	!	!	!LO:MO:mod=pa-	!	!	!	!	!	!	!	!	!
8AA/	6 5-	.	8f\	.	8cc\	.	16r	.	4A\	Pa-	.	4c\	pa-	.	4f\	pa-	.	4ee-X\	Pa-	.	2f\	.	2f\	.	1r	.	1r	.
.	.	.	.	.	.	.	16ccc\LL	.	.	.	.	.	.	.	.	.	.	.	.	.	.	.	.	.	.	.	.	.
8r	.	.	8r	.	8r	.	16aa\	.	.	.	.	.	.	.	.	.	.	.	.	.	.	.	.	.	.	.	.	.
.	.	.	.	.	.	.	16ee-X\JJ	.	.	.	.	.	.	.	.	.	.	.	.	.	.	.	.	.	.	.	.	.
*	*	*	*	*	*	*	*rep	*	*	*	*	*	*	*	*	*	*	*	*	*	*	*	*	*	*	*	*	*
8AA/	.	.	8f\	.	8cc\	.	16r	.	4A\	-ra-	.	4c\	-ra-	.	4f\	-ra-	.	4ee-\	-ra-	.	.	.	.	.	.	.	.	.
.	.	.	.	.	.	.	16ccc\LL	.	.	.	.	.	.	.	.	.	.	.	.	.	.	.	.	.	.	.	.	.
8r	.	.	8r	.	8r	.	16aa\	.	.	.	.	.	.	.	.	.	.	.	.	.	.	.	.	.	.	.	.	.
.	.	.	.	.	.	.	16ee-X\JJ	.	.	.	.	.	.	.	.	.	.	.	.	.	.	.	.	.	.	.	.	.
*	*	*	*	*	*	*	*Xrep	*	*	*	*	*	*	*	*	*	*	*	*	*	*	*	*	*	*	*	*	*
*	*	*	*	*	*	*	*xywh-#19:7340,4452,4800,509	*	*	*	*	*	*above	*	*	*	*	*xywh-#5:7265,3688,4813,604	*	*	*	*	*	*	*	*	*	*
!	!	!	!	!	!	!	!LO:LB:g=original	!	!	!	!	!	!	!	!	!	!	!LO:LB:g=original	!	!	!	!	!	!	!	!	!	!
8BB-/	.	.	8f\	.	8dd\	.	16r	.	4B-\	-di-	.	4B-\	-di-	.	4f\	-di-	.	4dd\	-di-	.	4f\	.	4f\	.	.	.	.	.
.	.	.	.	.	.	.	16bb-\LL	.	.	.	.	.	.	.	.	.	.	.	.	.	.	.	.	.	.	.	.	.
8r	.	.	8r	.	8r	.	16ff\	.	.	.	.	.	.	.	.	.	.	.	.	.	.	.	.	.	.	.	.	.
.	.	.	.	.	.	.	16dd\JJ	.	.	.	.	.	.	.	.	.	.	.	.	.	.	.	.	.	.	.	.	.
*	*	*	*	*	*	*	*rep	*	*	*	*	*	*	*	*	*	*	*	*	*	*	*	*	*	*	*	*	*
!	!	!	!	!	!	!	!	!	!	!LO:MO:mod=-si,	!	!	!LO:MO:mod=-si,	!	!	!LO:MO:mod=-si,	!	!	!LO:MO:mod=-si,	!	!	!	!	!	!	!	!	!
8BB-/	.	.	8f\	.	8dd\	.	16r	.	4B-\	-si	.	4B-\	-si	.	4f\	-si	.	4dd\	-si	.	4r	.	4r	.	.	.	.	.
.	.	.	.	.	.	.	16bb-\LL	.	.	.	.	.	.	.	.	.	.	.	.	.	.	.	.	.	.	.	.	.
8r	.	.	8r	.	8r	.	16ff\	.	.	.	.	.	.	.	.	.	.	.	.	.	.	.	.	.	.	.	.	.
.	.	.	.	.	.	.	16dd\JJ	.	.	.	.	.	.	.	.	.	.	.	.	.	.	.	.	.	.	.	.	.
*	*	*	*	*	*	*	*Xrep	*	*	*	*	*	*	*	*	*	*	*	*	*	*	*	*	*	*	*	*	*
!	!	!	!	!	!	!	!	!	!	!	!	!LO:LB:g=original	!	!	!LO:LB:g=original	!	!	!	!	!	!	!	!	!	!	!	!	!
=10	=10	=10	=10	=10	=10	=10	=10	=10	=10	=10	=10	=10	=10	=10	=10	=10	=10	=10	=10	=10	=10	=10	=10	=10	=10	=10	=10	=10
*	*	*	*	*	*	*	*	*	*	*ij	*	*xywh-#10:7221,6404,4655,604	*below	*	*xywh-#8:7234,2586,4815,625	*	*	*	*	*	*	*	*	*	*	*	*	*
!	!	!	!	!	!	!	!	!	!	!LO:MO:mod=pa-	!	!	!	!	!	!	!	!	!	!	!	!	!	!	!	!	!	!
8BBn/	3-	.	8f\	.	8dd\	.	16r	.	4Bn\	Pa-	.	4d\	pa-	.	4a-X\	pa-	.	4ff\	pa-	.	2r	.	2r	.	2r	.	2r	.
.	.	.	.	.	.	.	16aa-X\LL	.	.	.	.	.	.	.	.	.	.	.	.	.	.	.	.	.	.	.	.	.
8r	.	.	8r	.	8r	.	16ff\	.	.	.	.	.	.	.	.	.	.	.	.	.	.	.	.	.	.	.	.	.
.	.	.	.	.	.	.	16dd\JJ	.	.	.	.	.	.	.	.	.	.	.	.	.	.	.	.	.	.	.	.	.
*	*	*	*	*	*	*	*rep	*	*	*	*	*	*	*	*	*	*	*	*	*	*	*	*	*	*	*	*	*
8BB/	.	.	8f\	.	8dd\	.	16r	.	4B\	-ra-	.	4d\	-ra-	.	4a-\	-ra-	.	4ff\	-ra-	.	.	.	.	.	.	.	.	.
.	.	.	.	.	.	.	16aa-X\LL	.	.	.	.	.	.	.	.	.	.	.	.	.	.	.	.	.	.	.	.	.
8r	.	.	8r	.	8r	.	16ff\	.	.	.	.	.	.	.	.	.	.	.	.	.	.	.	.	.	.	.	.	.
.	.	.	.	.	.	.	16dd\JJ	.	.	.	.	.	.	.	.	.	.	.	.	.	.	.	.	.	.	.	.	.
*	*	*	*xywh-#30:2209,4249,4871,534	*	*	*	*Xrep	*	*	*	*	*	*	*	*	*	*	*	*	*	*	*	*	*	*	*	*	*
*	*	*	*	*	*	*	*	*	*	*	*	*	*	*	*	*	*	*	*	*	*4\right	*	*	*	*4\right	*	*4\right	*
!	!	!	!LO:LB:g=original	!	!	!	!	!	!	!	!	!	!	!	!	!	!	!	!	!	!	!	!	!	!	!	!	!
8C/	5 3	.	8e\	.	8g/	.	16r	.	4c\	-di-	.	4c\	-di-	.	4g\	-di-	.	4ee\	-di-	.	4c/	.	4g\	.	4ee\	.	4gg\	.
.	.	.	.	.	.	.	16gg\LL	.	.	.	.	.	.	.	.	.	.	.	.	.	.	.	.	.	.	.	.	.
8r	.	.	8r	.	8r	.	16ee\	.	.	.	.	.	.	.	.	.	.	.	.	.	.	.	.	.	.	.	.	.
.	.	.	.	.	.	.	16cc\JJ	.	.	.	.	.	.	.	.	.	.	.	.	.	.	.	.	.	.	.	.	.
8C/	6 4	.	8f\	.	8a/	.	16r	.	4c\	-si	.	4c\	-si	.	4an\	-si	.	4ff\	-si	.	4f\	.	4a\	.	4ff\	.	4aa\	.
.	.	.	.	.	.	.	16aan\LL	.	.	.	.	.	.	.	.	.	.	.	.	.	.	.	.	.	.	.	.	.
8r	.	.	8r	.	8r	.	16ff\	.	.	.	.	.	.	.	.	.	.	.	.	.	.	.	.	.	.	.	.	.
.	.	.	.	.	.	.	16cc\JJ	.	.	.	.	.	.	.	.	.	.	.	.	.	.	.	.	.	.	.	.	.
!	!	!	!	!	!	!	!	!	!	!	!	!	!	!	!	!	!	!	!	!	!LO:LB:g=original	!	!LO:LB:g=original	!	!LO:LB:g=original	!	!	!
=11	=11	=11	=11	=11	=11	=11	=11	=11	=11	=11	=11	=11	=11	=11	=11	=11	=11	=11	=11	=11	=11	=11	=11	=11	=11	=11	=11	=11
*	*	*	*	*	*	*	*	*	*	*Xij	*	*	*	*	*	*	*	*	*	*	*xywh-#36:2202,1837,4977,515	*	*xywh-#35:2233,2360,4728,619	*	*xywh-#34:2251,3512,4921,572	*	*	*
8C/	5 4	.	8f\	.	8g/	.	16r	.	4c\	glo-	.	4c\	glo-	.	4g\	glo-	.	4ff\	glo-	.	2c/	.	2g\	.	4ff\	.	2gg\	.
.	.	.	.	.	.	.	16gg\LL	.	.	.	.	.	.	.	.	.	.	.	.	.	.	.	.	.	.	.	.	.
8r	.	.	8r	.	8r	.	16ff\	.	.	.	.	.	.	.	.	.	.	.	.	.	.	.	.	.	.	.	.	.
.	.	.	.	.	.	.	16cc\JJ	.	.	.	.	.	.	.	.	.	.	.	.	.	.	.	.	.	.	.	.	.
8C/	5 3	.	8e\	.	8g/	.	16r	.	4C/	-ri-	.	4c\	-ri-	.	4g\	-ri-	.	4ee\	-ri-	.	.	.	.	.	4ee\	.	.	.
.	.	.	.	.	.	.	16gg\LL	.	.	.	.	.	.	.	.	.	.	.	.	.	.	.	.	.	.	.	.	.
8r	.	.	8r	.	8r	.	16ee\	.	.	.	.	.	.	.	.	.	.	.	.	.	.	.	.	.	.	.	.	.
.	.	.	.	.	.	.	16cc\JJ	.	.	.	.	.	.	.	.	.	.	.	.	.	.	.	.	.	.	.	.	.
!	!	!	!	!	!	!	!	!	!	!LO:MO:mod=-a.	!	!	!	!	!	!LO:MO:mod=-a.	!	!	!LO:MO:mod=-a.	!	!	!	!	!	!	!	!	!
8F\	.	.	8f\	.	8a/	.	16r	.	4F\	-a	.	4c\	-a.	.	4a\	-a	.	4ff\	-a	.	4f\	.	4a\	.	4ff\	.	4aa\	.
.	.	.	.	.	.	.	16ccc\LL	.	.	.	.	.	.	.	.	.	.	.	.	.	.	.	.	.	.	.	.	.
8r	.	.	8r	.	8r	.	16aa\	.	.	.	.	.	.	.	.	.	.	.	.	.	.	.	.	.	.	.	.	.
.	.	.	.	.	.	.	16ff\JJ	.	.	.	.	.	.	.	.	.	.	.	.	.	.	.	.	.	.	.	.	.
*	*	*	*	*	*	*	*rep	*	*	*	*	*	*	*	*	*	*	*	*	*	*	*	*	*	*	*	*	*
!	!	!LO:DY:b:t=p.	!	!	!	!LO:DY:b:t=p.:mod=%s	!	!LO:MO:null:mod=p	!	!	!	!	!	!	!	!	!	!	!	!	!	!	!	!	!	!	!	!
8F\	.	p	8f\	p	8a/	p	16r	.	4r	.	.	4r	.	.	4r	.	.	4r	.	.	4r	.	4r	.	4r	.	4r	.
.	.	.	.	.	.	.	16ccc\LL	.	.	.	.	.	.	.	.	.	.	.	.	.	.	.	.	.	.	.	.	.
8r	.	.	8r	.	8r	.	16aa\	.	.	.	.	.	.	.	.	.	.	.	.	.	.	.	.	.	.	.	.	.
.	.	.	.	.	.	.	16ff\JJ	.	.	.	.	.	.	.	.	.	.	.	.	.	.	.	.	.	.	.	.	.
*	*	*	*	*	*	*	*Xrep	*	*	*	*	*	*	*	*	*	*	*	*	*	*	*	*	*	*	*	*	*
!	!	!	!	!	!	!	!	!	!	!	!	!	!	!	!	!	!	!	!	!	!	!	!	!	!	!	!LO:LB:g=original	!
=12	=12	=12	=12	=12	=12	=12	=12	=12	=12	=12	=12	=12	=12	=12	=12	=12	=12	=12	=12	=12	=12	=12	=12	=12	=12	=12	=12	=12
*	*	*	*	*	*	*	*	*	*	*	*	*	*	*	*	*	*	*	*	*	*	*	*	*	*	*	*xywh-#32:2306,5112,4852,560	*
!	!	!	!	!	!	!	!	!	!	!	!	!	!	!	!	!	!	!	!	!	!LO:TX:a:t=3:mod=	!	!LO:TX:t=3:mod=	!	!	!	!	!
!	!	!	!	!	!	!	!	!	!	!	!	!	!	!	!	!	!	!	!	!	!LO:MO:mod=[1r	!	!LO:MO:mod=[1r	!	!	!	!	!
8E-X\	2#	.	8f#X\	.	8a/	.	16r	.	2r	.	.	2r	.	.	2r	.	.	2r	.	.	0r	.	0r	.	2r	.	1r	.
.	.	.	.	.	.	.	16ccc\LL	.	.	.	.	.	.	.	.	.	.	.	.	.	.	.	.	.	.	.	.	.
8r	.	.	8r	.	8r	.	16aa\	.	.	.	.	.	.	.	.	.	.	.	.	.	.	.	.	.	.	.	.	.
.	.	.	.	.	.	.	16ff#X\JJ	.	.	.	.	.	.	.	.	.	.	.	.	.	.	.	.	.	.	.	.	.
*	*	*	*	*	*	*	*rep	*	*	*	*	*	*	*	*	*	*	*	*	*	*	*	*	*	*	*	*	*
8E-\	.	.	8f#\	.	8a/	.	16r	.	.	.	.	.	.	.	.	.	.	.	.	.	.	.	.	.	.	.	.	.
.	.	.	.	.	.	.	16ccc\LL	.	.	.	.	.	.	.	.	.	.	.	.	.	.	.	.	.	.	.	.	.
8r	.	.	8r	.	8r	.	16aa\	.	.	.	.	.	.	.	.	.	.	.	.	.	.	.	.	.	.	.	.	.
.	.	.	.	.	.	.	16ff#X\JJ	.	.	.	.	.	.	.	.	.	.	.	.	.	.	.	.	.	.	.	.	.
*	*	*	*	*	*	*	*Xrep	*	*	*	*	*	*	*	*	*	*	*	*	*	*	*	*	*	*	*	*	*
*	*	*	*	*	*	*	*xywh-#19:7370,4831,4771,619	*	*	*	*	*	*	*	*	*	*	*	*	*	*	*	*	*	*	*	*	*
!	!	!LO:MO:null:mod=f	!	!LO:MO:null:mod=f	!	!LO:MO:null:mod=f	!LO:LB:g=original	!LO:MO:null:mod=f	!	!	!	!	!	!	!	!	!	!	!	!	!	!	!	!	!	!	!	!
8D\	3#	.	8f#\	.	8a/	.	16r	.	4D\	Quan-	.	4A\	Quan-	.	4f#X\	Quan-	.	4dd\	Quan-	.	.	.	.	.	2ff#X\	.	.	.
.	.	.	.	.	.	.	16ddd\LL	.	.	.	.	.	.	.	.	.	.	.	.	.	.	.	.	.	.	.	.	.
8r	.	.	8r	.	8r	.	16aa\	.	.	.	.	.	.	.	.	.	.	.	.	.	.	.	.	.	.	.	.	.
.	.	.	.	.	.	.	16ff#X\XJJ	.	.	.	.	.	.	.	.	.	.	.	.	.	.	.	.	.	.	.	.	.
*	*	*	*	*	*	*	*rep	*	*	*	*	*	*	*	*	*	*	*	*	*	*	*	*	*	*	*	*	*
!	!	!	!	!LO:DY:t=fo	!	!LO:DY:t=for	!	!LO:DY:b:t=p.	!	!	!	!	!	!	!	!	!	!	!	!	!	!	!	!	!	!	!	!
!	!	!	!	!LO:MO:mod=.	!	!LO:MO:mod=.	!	!LO:MO:mod=.	!	!	!	!	!	!	!	!	!	!	!	!	!	!	!	!	!	!	!	!
8D\	.	.	8f#\	f	8a/	f	16r	p	4D\	-do	.	4A\	-do	.	4f#\	-do	.	4dd\	-do	.	.	.	.	.	.	.	.	.
.	.	.	.	.	.	.	16ddd\LL	.	.	.	.	.	.	.	.	.	.	.	.	.	.	.	.	.	.	.	.	.
!LO:TX:a:t=Tutti:mod=	!	!	!	!	!	!	!	!	!	!	!	!	!	!	!	!	!	!	!	!	!	!	!	!	!	!	!	!
8r	.	.	8r	.	8r	.	16aa\	.	.	.	.	.	.	.	.	.	.	.	.	.	.	.	.	.	.	.	.	.
.	.	.	.	.	.	.	16ff#X\JJ	.	.	.	.	.	.	.	.	.	.	.	.	.	.	.	.	.	.	.	.	.
*	*	*	*	*	*	*	*Xrep	*	*	*	*	*	*	*	*	*	*	*	*	*	*	*	*	*	*	*	*	*
!!LO:MO:ori
=-	=-	=-	=-	=-	=-	=-	=-	=-	=-	=-	=-	=-	=-	=-	=-	=-	=-	=-	=-	=-	=-	=-	=-	=-	=-	=-	=	=
!LO:TX:t=P:problem:nadmiarowy takt cl 1	!	!	!LO:TX:t=P:problem:nadmiarowy takt cl 1	!	!LO:TX:t=P:problem:nadmiarowy takt cl 1	!	!LO:TX:t=P:problem:nadmiarowy takt cl 1	!	!LO:TX:t=P:problem:nadmiarowy takt cl 1	!	!	!LO:TX:t=P:problem:nadmiarowy takt cl 1	!	!	!LO:TX:t=P:problem:nadmiarowy takt cl 1	!	!	!LO:TX:t=P:problem:nadmiarowy takt cl 1	!	!	!LO:TX:t=P:problem:nadmiarowy takt cl 1	!	!LO:TX:t=P:problem:nadmiarowy takt cl 1	!	!LO:TX:t=P:problem:nadmiarowy takt cl 1	!	!LO:TX:t=P:problem:nadmiarowy takt	!
1ryy	.	.	1ryy	.	1ryy	.	1ryy	.	1ryy	.	.	1ryy	.	.	1ryy	.	.	1ryy	.	.	.	.	.	.	1ryy	.	1bb-	.
!!LO:MO:end
=13	=13	=13	=13	=13	=13	=13	=13	=13	=13	=13	=13	=13	=13	=13	=13	=13	=13	=13	=13	=13	=13	=13	=13	=13	=13	=13	=13	=13
*xywh-#40:7296,7086,4844,514	*	*	*	*	*	*	*	*	*	*	*	*	*	*	*	*	*	*	*	*	*	*	*	*	*	*	*	*
!	!	!LO:DY:t=for	!	!	!	!	!	!	!	!	!	!	!	!	!	!	!	!	!	!	!	!	!	!	!	!	!	!
!LO:LB:g=original	!	!LO:MO:mod=.	!	!	!	!	!	!	!	!	!	!	!	!	!	!	!	!	!	!	!LO:MO:mod=1r]	!	!LO:MO:mod=1r]	!	!	!	!	!
8G\	.	f	8d\	.	8b-\	.	16r	.	4G\	cor-	.	4B-\	cor-	.	4g\	cor-	.	4dd\	cor-	.	1ryy	.	1ryy	.	2gg\	.	2bb-\	.
.	.	.	.	.	.	.	16ddd\LL	.	.	.	.	.	.	.	.	.	.	.	.	.	.	.	.	.	.	.	.	.
8r	.	.	8r	.	8r	.	16bb-\	.	.	.	.	.	.	.	.	.	.	.	.	.	.	.	.	.	.	.	.	.
.	.	.	.	.	.	.	16gg\JJ	.	.	.	.	.	.	.	.	.	.	.	.	.	.	.	.	.	.	.	.	.
*	*	*	*	*	*xywh-#25:7219,2285,4783,522	*	*rep	*	*	*	*	*	*	*	*	*	*	*	*	*	*	*	*	*	*	*	*	*
!	!	!	!	!	!LO:LB:g=original	!	!	!	!	!	!	!	!	!	!	!	!	!	!	!	!	!	!	!	!	!	!	!
8G\	.	.	8d\	.	8b-\	.	16r	.	4G\	-pus	.	4B-\	-pus	.	4g\	-pus	.	4dd\	-pus	.	.	.	.	.	.	.	.	.
.	.	.	.	.	.	.	16ddd\LL	.	.	.	.	.	.	.	.	.	.	.	.	.	.	.	.	.	.	.	.	.
8r	.	.	8r	.	8r	.	16bb-\	.	.	.	.	.	.	.	.	.	.	.	.	.	.	.	.	.	.	.	.	.
.	.	.	.	.	.	.	16gg\JJ	.	.	.	.	.	.	.	.	.	.	.	.	.	.	.	.	.	.	.	.	.
*	*	*	*	*	*	*	*Xrep	*	*	*	*	*	*above	*	*	*	*	*	*	*	*	*	*	*	*	*	*	*
!	!	!	!	!	!	!	!	!	!	!	!	!	!	!	!LO:SIC:v:s=4f#\	!	!	!	!	!	!	!	!	!	!	!	!	!
8A\	6\	.	8d\	.	8f#X/	.	16r	.	4A\	mo-	.	4d\	mo-	.	4f\	mo-	.	4cc\	mo-	.	.	.	.	.	2cc\	.	2ff#X\	.
.	.	.	.	.	.	.	16ccc\LL	.	.	.	.	.	.	.	.	.	.	.	.	.	.	.	.	.	.	.	.	.
8r	.	.	8r	.	8r	.	16aa\	.	.	.	.	.	.	.	.	.	.	.	.	.	.	.	.	.	.	.	.	.
.	.	.	.	.	.	.	16ff#X\JJ	.	.	.	.	.	.	.	.	.	.	.	.	.	.	.	.	.	.	.	.	.
*	*	*	*	*	*	*	*rep	*	*	*	*	*	*	*	*	*	*	*	*	*	*	*	*	*	*	*	*	*
!	!	!	!	!	!	!	!	!	!	!	!	!	!	!	!LO:SIC:v:s=4f#\	!	!	!	!	!	!	!	!	!	!	!	!	!
8A\	.	.	8d\	.	8f#/	.	16r	.	4A\	-ri-	.	4d\	-ri-	.	4f\	-ri-	.	4cc\	-ri-	.	.	.	.	.	.	.	.	.
.	.	.	.	.	.	.	16ccc\LL	.	.	.	.	.	.	.	.	.	.	.	.	.	.	.	.	.	.	.	.	.
8r	.	.	8r	.	8r	.	16aa\	.	.	.	.	.	.	.	.	.	.	.	.	.	.	.	.	.	.	.	.	.
.	.	.	.	.	.	.	16ff#X\JJ	.	.	.	.	.	.	.	.	.	.	.	.	.	.	.	.	.	.	.	.	.
*	*	*	*	*	*	*	*Xrep	*	*	*	*	*	*	*	*	*	*	*	*	*	*	*	*	*	*	*	*	*
!	!	!	!	!	!	!	!	!	!LO:LB:g=original	!	!	!	!	!	!	!	!	!	!	!	!	!	!	!	!	!	!	!
=14	=14	=14	=14	=14	=14	=14	=14	=14	=14	=14	=14	=14	=14	=14	=14	=14	=14	=14	=14	=14	=14	=14	=14	=14	=14	=14	=14	=14
*	*	*	*	*	*	*	*	*	*xywh-#13:2200,6554,4774,605	*	*	*	*below	*	*	*	*	*	*	*	*	*	*	*	*	*	*	*
!	!	!	!	!	!	!	!	!LO:DY:t=for	!	!	!	!	!	!	!	!	!	!	!	!	!	!	!	!	!	!	!	!
!	!	!	!	!	!	!	!	!LO:MO:mod=.	!	!	!	!	!	!	!	!	!	!	!	!	!	!	!	!	!	!	!	!
8B-\	6	.	8d\	.	8g/	.	16r	f	4B-\	-e-	.	4d\	-e-	.	4g\	-e-	.	4b-\	-e-	.	1r	.	1r	.	2dd\	.	2gg\	.
.	.	.	.	.	.	.	16bb-\LL	.	.	.	.	.	.	.	.	.	.	.	.	.	.	.	.	.	.	.	.	.
8r	.	.	8r	.	8r	.	16gg\	.	.	.	.	.	.	.	.	.	.	.	.	.	.	.	.	.	.	.	.	.
.	.	.	.	.	.	.	16dd\JJ	.	.	.	.	.	.	.	.	.	.	.	.	.	.	.	.	.	.	.	.	.
*	*	*	*	*	*	*	*rep	*	*	*	*	*	*	*	*	*	*	*	*	*	*	*	*	*	*	*	*	*
!	!	!	!	!	!	!	!	!	!	!LO:MO:mod=-tur,	!	!	!LO:MO:mod=-tur,	!	!	!LO:MO:mod=-tur,	!	!	!LO:MO:mod=-tur,	!	!	!	!	!	!	!	!	!
8B-\	.	.	8d\	.	8g/	.	16r	.	4B-\	-tur	.	4d\	-tur	.	4g\	-tur	.	4b-\	-tur	.	.	.	.	.	.	.	.	.
.	.	.	.	.	.	.	16bb-\LL	.	.	.	.	.	.	.	.	.	.	.	.	.	.	.	.	.	.	.	.	.
8r	.	.	8r	.	8r	.	16gg\	.	.	.	.	.	.	.	.	.	.	.	.	.	.	.	.	.	.	.	.	.
.	.	.	.	.	.	.	16dd\JJ	.	.	.	.	.	.	.	.	.	.	.	.	.	.	.	.	.	.	.	.	.
*	*	*	*	*	*	*	*Xrep	*	*	*	*	*	*	*	*	*	*	*	*	*	*	*	*	*	*	*	*	*
!	!	!	!	!	!	!	!	!	!	!LO:MO:mod=fac,	!	!	!LO:MO:mod=fac,	!	!	!LO:MO:mod=fac,	!	!	!LO:MO:mod=fac,	!	!	!	!	!	!	!	!	!
8B-\	6|	.	8d\	.	8g#X/	.	16r	.	4B-\	fac	.	4d\	fac	.	4g#X\	fac	.	4dd\	fac	.	.	.	.	.	2dd\	.	2gg#X\	.
.	.	.	.	.	.	.	16ddd\LL	.	.	.	.	.	.	.	.	.	.	.	.	.	.	.	.	.	.	.	.	.
8r	.	.	8r	.	8r	.	16gg#X\	.	.	.	.	.	.	.	.	.	.	.	.	.	.	.	.	.	.	.	.	.
.	.	.	.	.	.	.	16dd\JJ	.	.	.	.	.	.	.	.	.	.	.	.	.	.	.	.	.	.	.	.	.
*	*	*	*	*	*	*	*rep	*	*	*	*	*	*	*	*	*	*	*	*	*	*	*	*	*	*	*	*	*
8B-\	.	.	8d\	.	8g#/	.	16r	.	4B-\	ut	.	4d\	ut	.	4g#\	ut	.	4dd\	ut	.	.	.	.	.	.	.	.	.
.	.	.	.	.	.	.	16ddd\LL	.	.	.	.	.	.	.	.	.	.	.	.	.	.	.	.	.	.	.	.	.
8r	.	.	8r	.	8r	.	16gg#X\	.	.	.	.	.	.	.	.	.	.	.	.	.	.	.	.	.	.	.	.	.
.	.	.	.	.	.	.	16dd\JJ	.	.	.	.	.	.	.	.	.	.	.	.	.	.	.	.	.	.	.	.	.
*	*	*	*	*	*	*	*Xrep	*	*	*	*	*	*	*	*	*	*	*	*	*	*	*	*	*	*	*	*	*
!	!	!	!	!	!	!	!	!	!	!	!	!	!	!	!	!	!	!LO:LB:g=original	!	!	!	!	!	!	!	!	!	!
=15	=15	=15	=15	=15	=15	=15	=15	=15	=15	=15	=15	=15	=15	=15	=15	=15	=15	=15	=15	=15	=15	=15	=15	=15	=15	=15	=15	=15
*	*	*	*	*	*	*	*	*	*	*	*	*	*	*	*	*	*	*xywh-#5:7207,4209,4878,572	*	*	*	*	*	*	*	*	*	*
8A\	#	.	8e\	.	8a/	.	16r	.	4A\	a-	.	4e\	a-	.	4a\	a-	.	4cc#X\	a-	.	4A/	.	4A/	.	2cc#X\	.	2aa\	.
.	.	.	.	.	.	.	16ccc#X\LL	.	.	.	.	.	.	.	.	.	.	.	.	.	.	.	.	.	.	.	.	.
8r	.	.	8r	.	8r	.	16aa\	.	.	.	.	.	.	.	.	.	.	.	.	.	.	.	.	.	.	.	.	.
.	.	.	.	.	.	.	16ee\JJ	.	.	.	.	.	.	.	.	.	.	.	.	.	.	.	.	.	.	.	.	.
*	*	*	*	*	*	*	*rep	*	*	*	*	*	*	*	*	*	*	*	*	*	*	*	*	*	*	*	*	*
8A\	.	.	8e\	.	8a/	.	16r	.	4A\	-ni-	.	4e\	-ni-	.	4a\	-ni-	.	4cc#\	-ni-	.	4A/	.	4A/	.	.	.	.	.
.	.	.	.	.	.	.	16ccc#X\LL	.	.	.	.	.	.	.	.	.	.	.	.	.	.	.	.	.	.	.	.	.
8r	.	.	8r	.	8r	.	16aa\	.	.	.	.	.	.	.	.	.	.	.	.	.	.	.	.	.	.	.	.	.
.	.	.	.	.	.	.	16ee\JJ	.	.	.	.	.	.	.	.	.	.	.	.	.	.	.	.	.	.	.	.	.
*	*	*	*	*	*	*	*Xrep	*	*	*	*	*	*	*	*	*	*	*	*	*	*	*	*	*	*	*	*	*
*	*	*	*xywh-#30:2234,4658,4889,459	*	*	*	*xywh-#19:7340,5355,4800,546	*	*	*	*	*	*	*	*	*	*	*	*	*	*	*	*	*	*	*	*	*
!	!LO:MO:mod=4# 3	!	!LO:LB:g=original	!	!	!	!LO:LB:g=original	!	!	!	!	!	!	!	!	!	!	!	!	!	!	!	!	!	!	!	!	!
8G\	4#r 3	.	8e\	.	8b-/	.	16r	.	4G\	-mae	.	4e\	-mae	.	4b-\	-mae	.	4cc#\	-mae	.	2r	.	2r	.	2r	.	2r	.
.	.	.	.	.	.	.	16bb-\LL	.	.	.	.	.	.	.	.	.	.	.	.	.	.	.	.	.	.	.	.	.
8r	.	.	8r	.	8r	.	16ee\	.	.	.	.	.	.	.	.	.	.	.	.	.	.	.	.	.	.	.	.	.
.	.	.	.	.	.	.	16cc#X\JJ	.	.	.	.	.	.	.	.	.	.	.	.	.	.	.	.	.	.	.	.	.
*	*	*	*	*	*	*	*rep	*	*	*	*	*	*	*	*	*	*	*	*	*	*	*	*	*	*	*	*	*
8G\	.	.	8e\	.	8b-/	.	16r	.	4G\	do-	.	4e\	do-	.	4b-\	do-	.	4cc#\	do-	.	.	.	.	.	.	.	.	.
.	.	.	.	.	.	.	16bb-\LL	.	.	.	.	.	.	.	.	.	.	.	.	.	.	.	.	.	.	.	.	.
8r	.	.	8r	.	8r	.	16ee\	.	.	.	.	.	.	.	.	.	.	.	.	.	.	.	.	.	.	.	.	.
.	.	.	.	.	.	.	16cc#X\JJ	.	.	.	.	.	.	.	.	.	.	.	.	.	.	.	.	.	.	.	.	.
*	*	*	*	*	*	*	*Xrep	*	*	*	*	*	*	*	*	*	*	*	*	*	*	*	*	*	*	*	*	*
!	!	!	!	!	!	!	!	!	!	!	!	!LO:LB:g=original	!	!	!LO:LB:g=original	!	!	!	!	!	!	!	!	!	!	!	!	!
=16	=16	=16	=16	=16	=16	=16	=16	=16	=16	=16	=16	=16	=16	=16	=16	=16	=16	=16	=16	=16	=16	=16	=16	=16	=16	=16	=16	=16
*	*	*	*	*	*	*	*	*	*	*	*	*xywh-#10:7221,6849,4767,604	*	*	*xywh-#8:7228,3055,4896,625	*	*	*	*	*	*	*	*	*	*	*	*	*
!	!	!	!	!	!	!	!	!	!	!	!	!	!	!	!	!	!	!	!	!	!	!	!LO:TX:a:t=1:mod=	!	!	!	!	!
*	*	*	*	*	*	*	*	*	*2\right	*	*	*2\right	*	*	*2\right	*	*	*2\right	*	*	*	*	*	*	*	*	*	*
8F\	6	.	8d\	.	8a/	.	16r	.	2F\	-ne-	.	2d\	-ne-	.	2a\	-ne-	.	2dd\	-ne-	.	1r	.	1r	.	1r	.	1r	.
.	.	.	.	.	.	.	16aa\LL	.	.	.	.	.	.	.	.	.	.	.	.	.	.	.	.	.	.	.	.	.
8r	.	.	8r	.	8r	.	16ff\	.	.	.	.	.	.	.	.	.	.	.	.	.	.	.	.	.	.	.	.	.
.	.	.	.	.	.	.	16dd\JJ	.	.	.	.	.	.	.	.	.	.	.	.	.	.	.	.	.	.	.	.	.
*	*	*	*	*	*	*	*rep	*	*	*	*	*	*	*	*	*	*	*	*	*	*	*	*	*	*	*	*	*
8F\	.	.	8d\	.	8a/	.	16r	.	.	.	.	.	.	.	.	.	.	.	.	.	.	.	.	.	.	.	.	.
.	.	.	.	.	.	.	16aa\LL	.	.	.	.	.	.	.	.	.	.	.	.	.	.	.	.	.	.	.	.	.
8r	.	.	8r	.	8r	.	16ff\	.	.	.	.	.	.	.	.	.	.	.	.	.	.	.	.	.	.	.	.	.
.	.	.	.	.	.	.	16dd\JJ	.	.	.	.	.	.	.	.	.	.	.	.	.	.	.	.	.	.	.	.	.
*	*	*	*	*	*	*	*Xrep	*	*	*	*	*	*	*	*	*	*	*	*	*	*	*	*	*	*	*	*	*
8E\	7 #	.	8d\	.	8g#X/	.	16r	.	2E\	-tur	.	2Bn\	-tur	.	2g#X\	-tur	.	2dd\	-tur	.	.	.	.	.	.	.	.	.
.	.	.	.	.	.	.	16ddd\LL	.	.	.	.	.	.	.	.	.	.	.	.	.	.	.	.	.	.	.	.	.
8r	.	.	8r	.	8r	.	16bbn\	.	.	.	.	.	.	.	.	.	.	.	.	.	.	.	.	.	.	.	.	.
.	.	.	.	.	.	.	16gg#X\JJ	.	.	.	.	.	.	.	.	.	.	.	.	.	.	.	.	.	.	.	.	.
*	*	*	*	*	*	*	*rep	*	*	*	*	*	*	*	*	*	*	*	*	*	*	*	*	*	*	*	*	*
8E\	.	.	8d\	.	8g#/	.	16r	.	.	.	.	.	.	.	.	.	.	.	.	.	.	.	.	.	.	.	.	.
.	.	.	.	.	.	.	16ddd\LL	.	.	.	.	.	.	.	.	.	.	.	.	.	.	.	.	.	.	.	.	.
8r	.	.	8r	.	8r	.	16bbn\	.	.	.	.	.	.	.	.	.	.	.	.	.	.	.	.	.	.	.	.	.
.	.	.	.	.	.	.	16gg#X\JJ	.	.	.	.	.	.	.	.	.	.	.	.	.	.	.	.	.	.	.	.	.
*	*	*	*	*	*	*	*Xrep	*	*	*	*	*	*	*	*	*	*	*	*	*	*	*	*	*	*	*	*	*
=17	=17	=17	=17	=17	=17	=17	=17	=17	=17	=17	=17	=17	=17	=17	=17	=17	=17	=17	=17	=17	=17	=17	=17	=17	=17	=17	=17	=17
8A\	#	.	8e\	.	8a/	.	16r	.	4A\	pa-	.	4e\	pa-	.	4a\	pa-	.	4cc#X\	pa-	.	2A/	.	2A/	.	2cc#X\	.	2ee\	.
.	.	.	.	.	.	.	16ccc#X\LL	.	.	.	.	.	.	.	.	.	.	.	.	.	.	.	.	.	.	.	.	.
8r	.	.	8r	.	8r	.	16aa\	.	.	.	.	.	.	.	.	.	.	.	.	.	.	.	.	.	.	.	.	.
.	.	.	.	.	.	.	16ee\JJ	.	.	.	.	.	.	.	.	.	.	.	.	.	.	.	.	.	.	.	.	.
*	*	*	*	*	*	*	*rep	*	*	*	*	*	*	*	*	*	*	*	*	*	*	*	*	*	*	*	*	*
8G\	2	.	8e\	.	8a/	.	16r	.	4G\	-ra-	.	4e\	-ra-	.	4a\	-ra-	.	4cc#\	-ra-	.	.	.	.	.	.	.	.	.
.	.	.	.	.	.	.	16ccc#X\LL	.	.	.	.	.	.	.	.	.	.	.	.	.	.	.	.	.	.	.	.	.
8r	.	.	8r	.	8r	.	16aa\	.	.	.	.	.	.	.	.	.	.	.	.	.	.	.	.	.	.	.	.	.
.	.	.	.	.	.	.	16ee\JJ	.	.	.	.	.	.	.	.	.	.	.	.	.	.	.	.	.	.	.	.	.
*	*	*	*	*	*xywh-#25:7164,2789,4825,443	*	*Xrep	*	*	*	*	*	*	*	*	*	*	*	*	*	*	*	*	*	*	*	*	*
!	!	!	!	!	!LO:LB:g=original	!	!	!	!	!	!	!	!	!	!	!	!	!	!	!	!	!	!	!	!	!	!	!
8F\	.	.	8d\	.	8a/	.	16r	.	4F\	-di-	.	4d\	-di-	.	4a\	-di-	.	4dd\	-di-	.	4f\	.	4a\	.	4cc#\	.	4ff\	.
.	.	.	.	.	.	.	16ddd\LL	.	.	.	.	.	.	.	.	.	.	.	.	.	.	.	.	.	.	.	.	.
8r	.	.	8r	.	8r	.	16aa\	.	.	.	.	.	.	.	.	.	.	.	.	.	.	.	.	.	.	.	.	.
.	.	.	.	.	.	.	16ff\JJ	.	.	.	.	.	.	.	.	.	.	.	.	.	.	.	.	.	.	.	.	.
8G\	.	.	8d\	.	8b-\	.	16r	.	4G\	-si	.	4g\	-si	.	4b-\	-si	.	4ee\	-si	.	4g\	.	4b-\	.	4ee\	.	4gg\	.
.	.	.	.	.	.	.	16bb-\LL	.	.	.	.	.	.	.	.	.	.	.	.	.	.	.	.	.	.	.	.	.
8r	.	.	8r	.	8r	.	16gg\	.	.	.	.	.	.	.	.	.	.	.	.	.	.	.	.	.	.	.	.	.
.	.	.	.	.	.	.	16ee\JJ	.	.	.	.	.	.	.	.	.	.	.	.	.	.	.	.	.	.	.	.	.
!LO:LB:g=original	!	!	!	!	!	!	!	!	!	!	!	!	!	!	!	!	!	!	!	!	!	!	!	!	!	!	!	!
=18	=18	=18	=18	=18	=18	=18	=18	=18	=18	=18	=18	=18	=18	=18	=18	=18	=18	=18	=18	=18	=18	=18	=18	=18	=18	=18	=18	=18
*xywh-#40:7281,7476,5023,725	*	*	*	*	*	*	*	*	*	*	*	*	*	*	*	*	*	*	*	*	*	*	*	*	*	*	*	*
8A\	6 7	.	8d\	.	8f/	.	16r	.	4A\	glo-	.	4f\	glo-	.	4a\	glo-	.	4dd\	glo-	.	4a\	.	4a\	.	4dd\	.	4ff\	.
.	.	.	.	.	.	.	16aa\LL	.	.	.	.	.	.	.	.	.	.	.	.	.	.	.	.	.	.	.	.	.
8r	.	.	8r	.	8r	.	16ff\	.	.	.	.	.	.	.	.	.	.	.	.	.	.	.	.	.	.	.	.	.
.	.	.	.	.	.	.	16dd\JJ	.	.	.	.	.	.	.	.	.	.	.	.	.	.	.	.	.	.	.	.	.
*	*	*	*	*	*	*	*xywh-#19:7311,5836,4829,531	*	*	*	*	*	*	*	*	*	*	*	*	*	*	*	*	*	*	*	*	*
!	!	!	!	!	!	!	!LO:LB:g=original	!	!	!	!	!	!	!	!	!	!	!	!	!	!	!	!	!	!LO:SIC:v:s=4cc#\	!	!LO:ACC:color=lightgray:note=ołówkiem	!
8AA/	5 #	.	8c#X\	.	8e/	.	16r	.	4AA/	-ri-	.	4e\	-ri-	.	4a\	-ri-	.	4cc#X\	-ri-	.	4A/	.	4a\	.	4cc\	.	4eenX\	.
.	.	.	.	.	.	.	16gg\LL	.	.	.	.	.	.	.	.	.	.	.	.	.	.	.	.	.	.	.	.	.
8r	.	.	8r	.	8r	.	16ee\	.	.	.	.	.	.	.	.	.	.	.	.	.	.	.	.	.	.	.	.	.
.	.	.	.	.	.	.	16cc#X\JJ	.	.	.	.	.	.	.	.	.	.	.	.	.	.	.	.	.	.	.	.	.
!	!	!	!	!	!	!	!	!	!	!LO:MO:mod=-a.	!	!	!LO:MO:mod=-a.	!	!	!LO:MO:mod=-a.	!	!	!LO:MO:mod=-a.	!	!	!	!	!	!	!	!	!
8D\	.	.	8A/	.	8f/	.	16r	.	4D\	-a	.	4d\	-a	.	4a\	-a	.	4dd\	-a	.	4A/	.	4a\	.	4dd\	.	4dd\	.
.	.	.	.	.	.	.	16ff\LL	.	.	.	.	.	.	.	.	.	.	.	.	.	.	.	.	.	.	.	.	.
8r	.	.	8r	.	8r	.	16dd\	.	.	.	.	.	.	.	.	.	.	.	.	.	.	.	.	.	.	.	.	.
.	.	.	.	.	.	.	16a\JJ	.	.	.	.	.	.	.	.	.	.	.	.	.	.	.	.	.	.	.	.	.
*	*	*	*	*	*	*	*rep	*	*	*	*	*	*	*	*	*	*	*	*	*	*	*	*	*	*	*	*	*
8D\	.	.	8A/	.	8f/	.	16r	.	4r	.	.	4r	.	.	4r	.	.	4r	.	.	4r	.	4r	.	4r	.	4r	.
.	.	.	.	.	.	.	16ff\LL	.	.	.	.	.	.	.	.	.	.	.	.	.	.	.	.	.	.	.	.	.
8r	.	.	8r	.	8r	.	16dd\	.	.	.	.	.	.	.	.	.	.	.	.	.	.	.	.	.	.	.	.	.
.	.	.	.	.	.	.	16a\JJ	.	.	.	.	.	.	.	.	.	.	.	.	.	.	.	.	.	.	.	.	.
*	*	*	*	*	*	*	*Xrep	*	*	*	*	*	*	*	*	*	*	*	*	*	*	*	*	*	*	*	*	*
!	!	!	!	!	!	!	!	!	!LO:LB:g=original	!	!	!	!	!	!	!	!	!	!	!	!	!	!	!	!	!	!	!
=19	=19	=19	=19	=19	=19	=19	=19	=19	=19	=19	=19	=19	=19	=19	=19	=19	=19	=19	=19	=19	=19	=19	=19	=19	=19	=19	=19	=19
*	*	*	*	*	*	*	*	*	*xywh-#13:2248,7014,4732,629	*	*	*	*	*	*	*	*	*	*	*	*	*	*	*	*	*	*	*
!	!LO:MO:mod=6-_	!	!	!	!	!	!	!	!	!LO:MO:mod=Fac,	!	!	!LO:MO:mod=Fac,	!	!	!LO:MO:mod=Fac,	!	!	!LO:MO:mod=Fac,	!	!	!	!	!	!LO:TX:t=2:mod=	!	!	!
8G\	6-r_	.	8B-/	.	8e-X/	.	16r	.	4G\	fac	.	4e-X\	fac	.	4b-\	fac	.	4ee-X\	fac	.	1r	.	1r	.	0r	.	0r	.
.	.	.	.	.	.	.	16bb-\LL	.	.	.	.	.	.	.	.	.	.	.	.	.	.	.	.	.	.	.	.	.
8r	.	.	8r	.	8r	.	16gg\	.	.	.	.	.	.	.	.	.	.	.	.	.	.	.	.	.	.	.	.	.
.	.	.	.	.	.	.	16ee-X\JJ	.	.	.	.	.	.	.	.	.	.	.	.	.	.	.	.	.	.	.	.	.
*	*	*	*	*	*	*	*rep	*	*	*	*	*	*	*	*	*	*	*	*	*	*	*	*	*	*	*	*	*
8G\	x	.	8B-/	.	8e-/	.	16r	.	4G\	ut	.	4e-\	ut	.	4b-\	ut	.	4ee-\	ut	.	.	.	.	.	.	.	.	.
.	.	.	.	.	.	.	16bb-\LL	.	.	.	.	.	.	.	.	.	.	.	.	.	.	.	.	.	.	.	.	.
8r	.	.	8r	.	8r	.	16gg\	.	.	.	.	.	.	.	.	.	.	.	.	.	.	.	.	.	.	.	.	.
.	.	.	.	.	.	.	16ee-X\JJ	.	.	.	.	.	.	.	.	.	.	.	.	.	.	.	.	.	.	.	.	.
*	*	*	*	*	*	*	*Xrep	*	*	*	*	*	*	*	*	*	*	*	*	*	*	*	*	*	*	*	*	*
!	!LO:MO:mod=6 4# 3	!	!	!	!	!	!	!	!	!	!	!	!	!	!	!	!	!	!	!	!	!	!	!	!	!	!	!
8G\	6 4#r 3	.	8c#X/	.	8en/	.	16r	.	4G\	a-	.	4en\	a-	.	4b-\	a-	.	4cc#X\	a-	.	.	.	.	.	.	.	.	.
.	.	.	.	.	.	.	16bb-\LL	.	.	.	.	.	.	.	.	.	.	.	.	.	.	.	.	.	.	.	.	.
8r	.	.	8r	.	8r	.	16een\	.	.	.	.	.	.	.	.	.	.	.	.	.	.	.	.	.	.	.	.	.
.	.	.	.	.	.	.	16cc#X\JJ	.	.	.	.	.	.	.	.	.	.	.	.	.	.	.	.	.	.	.	.	.
8F\	6	.	8d/	.	8f/	.	16r	.	4F\	-ni-	.	4d\	-ni-	.	4a\	-ni-	.	4dd\	-ni-	.	.	.	.	.	.	.	.	.
.	.	.	.	.	.	.	16aa\LL	.	.	.	.	.	.	.	.	.	.	.	.	.	.	.	.	.	.	.	.	.
8r	.	.	8r	.	8r	.	16ff\	.	.	.	.	.	.	.	.	.	.	.	.	.	.	.	.	.	.	.	.	.
.	.	.	.	.	.	.	16dd\JJ	.	.	.	.	.	.	.	.	.	.	.	.	.	.	.	.	.	.	.	.	.
!	!	!	!	!	!	!	!	!	!	!	!	!	!	!	!	!	!	!LO:LB:g=original	!	!	!	!	!	!	!	!	!	!
=20	=20	=20	=20	=20	=20	=20	=20	=20	=20	=20	=20	=20	=20	=20	=20	=20	=20	=20	=20	=20	=20	=20	=20	=20	=20	=20	=20	=20
*	*	*	*	*	*	*	*	*	*	*	*	*	*	*	*	*	*	*xywh-#5:7239,4658,4755,591	*	*	*	*	*	*	*	*	*	*
8E\	7 #	.	8Bn/	.	8g#X/	.	16r	.	4E\	-mae	.	4Bn\	-mae	.	4g#X\	-mae	.	4dd\	-mae	.	2r	.	2r	.	.	.	.	.
.	.	.	.	.	.	.	16ddd\LL	.	.	.	.	.	.	.	.	.	.	.	.	.	.	.	.	.	.	.	.	.
8r	.	.	8r	.	8r	.	16gg#X\	.	.	.	.	.	.	.	.	.	.	.	.	.	.	.	.	.	.	.	.	.
.	.	.	.	.	.	.	16dd\JJ	.	.	.	.	.	.	.	.	.	.	.	.	.	.	.	.	.	.	.	.	.
*	*	*	*	*	*	*	*rep	*	*	*	*	*	*	*	*	*	*	*	*	*	*	*	*	*	*	*	*	*
8E\	.	.	8B/	.	8g#/	.	16r	.	4E\	do-	.	4B\	do-	.	4g#\	do-	.	4dd\	do-	.	.	.	.	.	.	.	.	.
.	.	.	.	.	.	.	16ddd\LL	.	.	.	.	.	.	.	.	.	.	.	.	.	.	.	.	.	.	.	.	.
8r	.	.	8r	.	8r	.	16gg#X\	.	.	.	.	.	.	.	.	.	.	.	.	.	.	.	.	.	.	.	.	.
.	.	.	.	.	.	.	16dd\JJ	.	.	.	.	.	.	.	.	.	.	.	.	.	.	.	.	.	.	.	.	.
*	*	*	*xywh-#30:2196,5048,3247,541	*	*	*	*Xrep	*	*	*	*	*	*	*	*	*	*	*	*	*	*	*	*	*	*	*	*	*
!	!	!	!LO:LB:g=original	!	!	!	!	!	!	!	!	!	!	!	!	!	!	!	!	!	!	!	!	!	!	!	!	!
8A\	#	.	8c#X/	.	8e/	.	16r	.	4A\	-ne-	.	4A\	-ne-	.	4e\	-ne-	.	4cc#X\	-ne-	.	2A/	.	2A/	.	.	.	.	.
.	.	.	.	.	.	.	16ccc#X\LL	.	.	.	.	.	.	.	.	.	.	.	.	.	.	.	.	.	.	.	.	.
8r	.	.	8r	.	8r	.	16aa\	.	.	.	.	.	.	.	.	.	.	.	.	.	.	.	.	.	.	.	.	.
.	.	.	.	.	.	.	16ee\JJ	.	.	.	.	.	.	.	.	.	.	.	.	.	.	.	.	.	.	.	.	.
*	*	*	*	*	*	*	*rep	*	*	*	*	*	*	*	*	*	*	*	*	*	*	*	*	*	*	*	*	*
8A\	.	.	8c#/	.	8e/	.	16r	.	4A\	-tur	.	4A\	-tur	.	4e\	-tur	.	4cc#\	-tur	.	.	.	.	.	.	.	.	.
.	.	.	.	.	.	.	16ccc#X\LL	.	.	.	.	.	.	.	.	.	.	.	.	.	.	.	.	.	.	.	.	.
8r	.	.	8r	.	8r	.	16aa\	.	.	.	.	.	.	.	.	.	.	.	.	.	.	.	.	.	.	.	.	.
.	.	.	.	.	.	.	16ee\JJ	.	.	.	.	.	.	.	.	.	.	.	.	.	.	.	.	.	.	.	.	.
*	*	*	*	*	*	*	*Xrep	*	*	*	*	*	*	*	*	*	*	*	*	*	*	*	*	*	*	*	*	*
!	!	!	!	!	!	!	!LO:LB:g=original	!	!	!	!	!	!	!	!	!	!	!	!	!	!	!	!	!	!	!	!	!
=21	=21	=21	=21	=21	=21	=21	=21	=21	=21	=21	=21	=21	=21	=21	=21	=21	=21	=21	=21	=21	=21	=21	=21	=21	=21	=21	=21	=21
*	*	*	*	*	*	*	*xywh-#19:7384,6302,4639,626	*	*	*	*	*	*	*	*	*	*	*	*	*	*	*	*	*	*	*	*	*
!	!	!	!LO:SIC:v:s=8c#/	!	!	!	!	!	!	!	!	!	!	!	!	!	!	!	!LO:MO:mod=pa-	!	!	!	!	!	!	!	!	!
8G\	2	.	8c/	.	8a/	.	16r	.	4G\	pa-	.	4c#X\	pa-	.	4a\	pa-	.	4ee\	Pa-	.	4A/	.	4A/	.	2cc#X\	.	2aa\	.
!	!	!	!	!	!	!	!LO:SIC:v:s=16ccc#\LL	!	!	!	!	!	!	!	!	!	!	!	!	!	!	!	!	!	!	!	!	!
.	.	.	.	.	.	.	16ccc\LL	.	.	.	.	.	.	.	.	.	.	.	.	.	.	.	.	.	.	.	.	.
8r	.	.	8r	.	8r	.	16aa\	.	.	.	.	.	.	.	.	.	.	.	.	.	.	.	.	.	.	.	.	.
.	.	.	.	.	.	.	16ee\JJ	.	.	.	.	.	.	.	.	.	.	.	.	.	.	.	.	.	.	.	.	.
*	*	*	*	*	*	*	*rep	*	*	*	*	*	*	*	*	*	*	*	*	*	*	*	*	*	*	*	*	*
8G\	.	.	8e\	.	8a/	.	16r	.	4G\	-ra-	.	4c#\	-ra-	.	4a\	-ra-	.	4ee\	-ra-	.	4A/	.	4A/	.	.	.	.	.
!	!	!	!	!	!	!	!LO:SIC:v:s=16ccc#\LL	!	!	!	!	!	!	!	!	!	!	!	!	!	!	!	!	!	!	!	!	!
.	.	.	.	.	.	.	16ccc\LL	.	.	.	.	.	.	.	.	.	.	.	.	.	.	.	.	.	.	.	.	.
8r	.	.	8r	.	8r	.	16aa\	.	.	.	.	.	.	.	.	.	.	.	.	.	.	.	.	.	.	.	.	.
.	.	.	.	.	.	.	16ee\JJ	.	.	.	.	.	.	.	.	.	.	.	.	.	.	.	.	.	.	.	.	.
*	*	*	*	*	*xywh-#25:7249,3238,3690,485	*	*Xrep	*	*	*	*	*	*	*	*	*	*	*	*	*	*	*	*	*	*	*	*	*
!	!	!	!	!	!LO:LB:g=original	!	!	!	!	!	!	!	!	!	!	!	!	!	!	!	!	!	!	!	!	!	!LO:SIC:v:s-=4aa\	!
8F\	6	.	8d\	.	8a/	.	16r	.	4F\	-di-	.	4d\	-di-	.	4a\	-di-	.	4dd\	-di-	.	4f\	.	4a\	.	2dd\	.	4bb-\	.
.	.	.	.	.	.	.	16ddd\LL	.	.	.	.	.	.	.	.	.	.	.	.	.	.	.	.	.	.	.	.	.
8r	.	.	8r	.	8r	.	16aa\	.	.	.	.	.	.	.	.	.	.	.	.	.	.	.	.	.	.	.	.	.
.	.	.	.	.	.	.	16ff\JJ	.	.	.	.	.	.	.	.	.	.	.	.	.	.	.	.	.	.	.	.	.
*	*	*	*	*	*	*	*rep	*	*	*	*	*	*	*	*	*	*	*	*	*	*	*	*	*	*	*	*	*
8G\	5	.	8d\	.	8b-\	.	16r	.	4G\	-si	.	4d\	-si	.	4b-\	-si	.	4gg\	-si	.	4g\	.	4b-\	.	.	.	4r	.
.	.	.	.	.	.	.	16ddd\LL	.	.	.	.	.	.	.	.	.	.	.	.	.	.	.	.	.	.	.	.	.
8r	.	.	8r	.	8r	.	16aa\	.	.	.	.	.	.	.	.	.	.	.	.	.	.	.	.	.	.	.	.	.
.	.	.	.	.	.	.	16ff\JJ	.	.	.	.	.	.	.	.	.	.	.	.	.	.	.	.	.	.	.	.	.
*	*	*	*	*	*	*	*Xrep	*	*	*	*	*	*	*	*	*	*	*	*	*	*	*	*	*	*	*	*	*
!	!	!	!	!	!	!	!	!	!	!	!	!LO:LB:g=original	!	!	!LO:LB:g=original	!	!	!	!	!	!LO:LB:g=original	!	!LO:LB:g=original	!	!	!	!	!
=22	=22	=22	=22	=22	=22	=22	=22	=22	=22	=22	=22	=22	=22	=22	=22	=22	=22	=22	=22	=22	=22	=22	=22	=22	=22	=22	=22	=22
*	*	*	*	*	*	*	*	*	*	*	*	*xywh-#10:7197,7364,2893,812	*	*	*xywh-#8:7146,3537,2689,550	*	*	*	*	*	*xywh-#36:2244,2341,2476,424	*	*xywh-#35:2178,2931,2695,376	*	*	*	*	*
8A\	6 4	.	8f\	.	8dd\	.	16r	.	4A\	glo-	.	4d\	glo-	.	4a\	glo-	.	4ff\	glo-	.	4a\	.	4a\	.	4dd\	.	4ff\	.
.	.	.	.	.	.	.	16ddd\LL	.	.	.	.	.	.	.	.	.	.	.	.	.	.	.	.	.	.	.	.	.
8r	.	.	8r	.	8r	.	16aa\	.	.	.	.	.	.	.	.	.	.	.	.	.	.	.	.	.	.	.	.	.
.	.	.	.	.	.	.	16ff\JJ	.	.	.	.	.	.	.	.	.	.	.	.	.	.	.	.	.	.	.	.	.
!	!	!	!	!	!	!	!	!	!	!	!	!	!	!	!	!	!	!	!	!	!	!	!	!	!LO:SIC:v:s=4dd#	!	!	!
8AA/	5 #	.	8e\	.	8cc#X\	.	16r	.	4AA/	-ri-	.	4c#X\	-ri-	.	4a\	-ri-	.	4ee\	-ri-	.	4A/	.	4a\	.	4cc\	.	4ee\	.
.	.	.	.	.	.	.	16ccc#X\LL	.	.	.	.	.	.	.	.	.	.	.	.	.	.	.	.	.	.	.	.	.
8r	.	.	8r	.	8r	.	16aa\	.	.	.	.	.	.	.	.	.	.	.	.	.	.	.	.	.	.	.	.	.
.	.	.	.	.	.	.	16ee\JJ	.	.	.	.	.	.	.	.	.	.	.	.	.	.	.	.	.	.	.	.	.
!	!	!	!	!	!	!	!	!	!	!LO:MO:mod=-a,	!	!	!LO:MO:mod=-a,	!	!	!LO:MO:mod=-a,	!	!	!LO:MO:mod=-a,	!	!	!	!	!	!	!	!	!
8D\	.	.	8f\	.	8dd\	.	16r	.	4D\	-a	.	4d\	-a	.	4a\	-a	.	4dd\	-a	.	8A/	.	8a\	.	4dd\	.	4dd\	.
.	.	.	.	.	.	.	16ddd\LL	.	.	.	.	.	.	.	.	.	.	.	.	.	.	.	.	.	.	.	.	.
8r	.	.	8r	.	8r	.	16aa\	.	.	.	.	.	.	.	.	.	.	.	.	.	8r	.	8r	.	.	.	.	.
.	.	.	.	.	.	.	16ff\JJ	.	.	.	.	.	.	.	.	.	.	.	.	.	.	.	.	.	.	.	.	.
8D\	.	.	8f\	.	8dd\	.	16r	.	4r	.	.	4r	.	.	4r	.	.	4r	.	.	8A/	.	8A/	.	4r	.	4r	.
.	.	.	.	.	.	.	16dd\LL	.	.	.	.	.	.	.	.	.	.	.	.	.	.	.	.	.	.	.	.	.
8r	.	.	8r	.	8r	.	16a\	.	.	.	.	.	.	.	.	.	.	.	.	.	8r	.	8r	.	.	.	.	.
.	.	.	.	.	.	.	16f\JJ	.	.	.	.	.	.	.	.	.	.	.	.	.	.	.	.	.	.	.	.	.
=23	=23	=23	=23	=23	=23	=23	=23	=23	=23	=23	=23	=23	=23	=23	=23	=23	=23	=23	=23	=23	=23	=23	=23	=23	=23	=23	=23	=23
*4\right	*	*	*4\right	*	*	*	*	*	*	*	*	*	*	*	*	*	*	*	*	*	*	*	*	*	*	*	*	*
!	!	!	!	!	!	!	!	!	!	!	!	!	!	!	!	!	!	!	!LO:MO:mod=pa-	!	!	!	!	!	!LO:TX:t=2:mod=	!	!	!
4D\	.	.	4f\	.	4d/	.	4d/	.	4D\	pa-	.	4d\	pa-	.	4a\	pa-	.	4ff\	Pa-	.	4A/	.	4A/	.	0r	.	1r	.
4r	.	.	4r	.	4r	.	4r	.	4d\	-ra-	.	4d\	-ra-	.	4a\	-ra-	.	4ff\	-ra-	.	4r	.	4r	.	.	.	.	.
2r	.	.	2r	.	2r	.	2r	.	4c#X\	-di-	.	4e\	-di-	.	4a\	-di-	.	4ee\	-di-	.	2r	.	2r	.	.	.	.	.
.	.	.	.	.	.	.	.	.	4cn\	-si	.	4A\	-si	.	4a\	-si	.	4ee\	-si	.	.	.	.	.	.	.	.	.
!	!	!LO:LB:g=original	!	!	!	!	!	!	!	!	!	!	!	!	!	!	!	!	!	!	!	!	!	!	!	!	!	!
=24	=24	=24	=24	=24	=24	=24	=24	=24	=24	=24	=24	=24	=24	=24	=24	=24	=24	=24	=24	=24	=24	=24	=24	=24	=24	=24	=24	=24
*	*	*	*	*	*	*	*	*	*xywh-#13:2273,7534,1240,520	*	*	*	*	*	*	*	*	*	*	*	*	*	*	*	*	*	*	*
!LO:TX:a:t=1:mod=	!	!	!LO:N:vis=0	!	!	!	!	!	!	!	!	!	!	!	!	!	!	!	!	!	!	!	!	!	!	!	!	!
1r	.	.	1r	.	1r	.	1r	.	4.B-\	glo-	.	4.d\	glo-	.	4a\	glo-	.	4.dd\	glo-	.	1r	.	1r	.	.	.	1r	.
*	*	*	*	*	*	*	*	*	*8\right	*	*	*8\right	*	*	*8\right	*	*	*	*	*	*	*	*	*	*	*	*	*
.	.	.	.	.	.	.	.	.	.	.	.	.	.	.	8g\L	-ri-	.	.	.	.	.	.	.	.	.	.	.	.
.	.	.	.	.	.	.	.	.	8B-\	-ri-	.	8e\	-ri-	.	8g#X\J	.	.	8dd\	-ri-	.	.	.	.	.	.	.	.	.
.	.	.	.	.	.	.	.	.	.	.	.	.	.	.	.	.	.	4qqdd/	.	.	.	.	.	.	.	.	.	.
!	!	!	!	!	!	!	!	!	!	!LO:MO:mod=-a.	!	!	!LO:MO:mod=-a.	!	!	!LO:MO:mod=-a.	!	!	!LO:MO:mod=-a.	!	!	!	!	!	!	!	!	!
.	.	.	.	.	.	.	.	.	2A\	-a	.	2e\	-a	.	2a\	-a	.	2cc#X\	-a	.	.	.	.	.	.	.	.	.
!	!	!	!	!	!	!	!LO:TX:b:t=Amen Allo. Nadrugi\nStronie:mod=	!	!	!	!	!	!	!	!	!	!	!	!	!	!	!	!	!	!	!	!	!
==	==	==	==	==	==	==	==	==	==	==	==	==	==	==	==	==	==	==	==	==	==	==	==	==	==	==	==	==
*-	*-	*-	*-	*-	*-	*-	*-	*-	*-	*-	*-	*-	*-	*-	*-	*-	*-	*-	*-	*-	*-	*-	*-	*-	*-	*-	*-	*-
!!!system-decoration: [(g1)][(g2)][(g3)][(g4)](s12)
!!LO:MO:ori
!!!RDF**dynam: < = Cres
!!LO:MO:end
!!!ENC: Anna Matuszewska
!!!END: 2020-04-13
!!!YEC: Copyright 2022 Narodowy Instytut Fryderyka Chopina (https://polishscores.org)
!!!YEM: Licence CC BY 4.0 (https://creativecommons.org/licenses/by/4.0)
!!!IIIF: https://repozytorium.nifc.pl/islandora/object/pl-cz%3A33216/datastream/IIIF/view
!!!ENC-iiif: Olaf Gawdzik
!!!END-iiif: 2022-09-13
!!!ENC-modern: Krzysztof Stępień
!!!END-modern: 2022-10-06
!!!filter-modern: shed -e "s/:t=P:/:T=P:/L"
!!!filter-modern: shed -e "s/^(\d+[\/\\]right)/$1yy/I; s/^(\d+[\/\\]left)/$1yy/I"
!!!filter-modern: humtr -p
!!!filter-modern: shed -e "s/yy//"
!!!filter-modern: shed -k -e "s/\(y(?!y)/(/"
!!!filter-modern: shed -k -e "s/([\(\)\[\]])[><]/$1/g"
!!!filter-modern: shed -k -e “s/([()[]_])[><]/$1/g”
!!!filter-modern: tie -s
!!!filter-modern: shed -e "s/^(X?)rep$/$1REP/I"
!!!filter-modern: shed -k -e "s/^(X?)tuplet/$1TUPLET/I"
!!!filter-modern: shed -e "s/LO:DY:(a|b|rj)/LO:dy:$1/L"
!!!filter-modern: shed -e "s/LO:HP:(a|b)/LO:hp:$1/L"
!!!filter-modern: shed -k -e "s/r[a-gA-G]+/r/D"
!!!filter-modern: shed -k -e "s/([^a-gA-Gn#-])[<>]/$1/g"
!!!filter-modern: sic -sq
!!!filter-modern: autostem -r
!!!filter-modern: modori -m
